; generated by Slic3r 1.0.0RC2 on 2014-09-09 at 17:22:29

; layer_height = 0.3
; perimeters = 3
; top_solid_layers = 3
; bottom_solid_layers = 3
; fill_density = 0.15
; perimeter_speed = 50
; infill_speed = 50
; travel_speed = 75
; nozzle_diameter = 0.4
; filament_diameter = 1.8
; extrusion_multiplier = 1
; perimeters extrusion width = 0.40mm
; infill extrusion width = 0.42mm
; solid infill extrusion width = 0.42mm
; top infill extrusion width = 0.42mm
; support material extrusion width = 0.40mm
; first layer extrusion width = 0.60mm

G21 ; set units to millimeters
M107
M104 S195 ; set temperature
G28 X0 Y0
G29
M109 S195 ; wait for temperature to be reached
G90 ; use absolute coordinates
G92 E0
M82 ; use absolute distances for extrusion
M106 S89
G1 F1800.000 E-1.00000
G92 E0
G1 Z0.300 F4500.000
G1 X36.220 Y44.350 F4500.000
G1 E1.00000 F1800.000
G1 X37.400 Y43.720 E1.06308 F300.000
G1 X38.670 Y43.330 E1.12573
G1 X40.000 Y43.200 E1.18875
G1 X81.000 Y43.200 E3.12218
G1 X82.610 Y43.390 E3.19863
G1 X84.120 Y43.960 E3.27475
G1 X113.120 Y58.960 E4.81441
G1 X114.360 Y59.780 E4.88451
G1 X115.390 Y60.850 E4.95455
G1 X116.160 Y62.120 E5.02458
G1 X116.640 Y63.520 E5.09438
G1 X116.800 Y65.000 E5.16458
G1 X116.800 Y100.000 E6.81507
G1 X116.670 Y101.330 E6.87809
G1 X116.280 Y102.600 E6.94074
G1 X115.650 Y103.780 E7.00382
G1 X114.810 Y104.810 E7.06650
G1 X113.780 Y105.650 E7.12917
G1 X112.600 Y106.280 E7.19225
G1 X111.330 Y106.670 E7.25490
G1 X110.000 Y106.800 E7.31792
G1 X69.000 Y106.800 E9.25136
G1 X67.390 Y106.610 E9.32781
G1 X65.880 Y106.040 E9.40392
G1 X36.880 Y91.040 E10.94358
G1 X35.640 Y90.220 E11.01368
G1 X34.610 Y89.150 E11.08372
G1 X33.840 Y87.880 E11.15376
G1 X33.360 Y86.480 E11.22355
G1 X33.200 Y85.000 E11.29375
G1 X33.200 Y50.000 E12.94424
G1 X33.330 Y48.670 E13.00726
G1 X33.720 Y47.400 E13.06991
G1 X34.350 Y46.220 E13.13299
G1 X35.190 Y45.190 E13.19567
G1 X36.174 Y44.388 E13.25551
G1 X36.440 Y44.680 F4500.000
G1 X37.550 Y44.090 E13.31479 F300.000
G1 X38.750 Y43.720 E13.37401
G1 X40.000 Y43.600 E13.43323
G1 X81.000 Y43.600 E15.36666
G1 X82.510 Y43.780 E15.43838
G1 X83.940 Y44.320 E15.51046
G1 X112.940 Y59.320 E17.05012
G1 X114.100 Y60.090 E17.11578
G1 X115.070 Y61.100 E17.18181
G1 X115.800 Y62.290 E17.24765
G1 X116.250 Y63.610 E17.31341
G1 X116.400 Y65.000 E17.37934
G1 X116.400 Y100.000 E19.02984
G1 X116.280 Y101.250 E19.08905
G1 X115.910 Y102.450 E19.14827
G1 X115.320 Y103.560 E19.20755
G1 X114.530 Y104.530 E19.26654
G1 X113.560 Y105.320 E19.32554
G1 X112.450 Y105.910 E19.38482
G1 X111.250 Y106.280 E19.44403
G1 X110.000 Y106.400 E19.50325
G1 X69.000 Y106.400 E21.43669
G1 X67.490 Y106.220 E21.50840
G1 X66.060 Y105.680 E21.58048
G1 X37.060 Y90.680 E23.12014
G1 X35.900 Y89.910 E23.18580
G1 X34.930 Y88.900 E23.25184
G1 X34.200 Y87.710 E23.31767
G1 X33.750 Y86.390 E23.38344
G1 X33.600 Y85.000 E23.44936
G1 X33.600 Y50.000 E25.09986
G1 X33.720 Y48.750 E25.15908
G1 X34.090 Y47.550 E25.21829
G1 X34.680 Y46.440 E25.27757
G1 X35.470 Y45.470 E25.33657
G1 X36.393 Y44.718 E25.39273
G1 F1800.000 E24.39273
G92 E0
G1 Z0.600 F4500.000
G1 X36.220 Y44.350 F4500.000
G1 E1.00000 F1800.000
G1 X37.400 Y43.720 E1.06308 F3000
G1 X38.670 Y43.330 E1.12573
G1 X40.000 Y43.200 E1.18875
G1 X81.000 Y43.200 E3.12218
G1 X82.610 Y43.390 E3.19863
G1 X84.120 Y43.960 E3.27475
G1 X113.120 Y58.960 E4.81441
G1 X114.360 Y59.780 E4.88451
G1 X115.390 Y60.850 E4.95455
G1 X116.160 Y62.120 E5.02458
G1 X116.640 Y63.520 E5.09438
G1 X116.800 Y65.000 E5.16458
G1 X116.800 Y100.000 E6.81507
G1 X116.670 Y101.330 E6.87809
G1 X116.280 Y102.600 E6.94074
G1 X115.650 Y103.780 E7.00382
G1 X114.810 Y104.810 E7.06650
G1 X113.780 Y105.650 E7.12917
G1 X112.600 Y106.280 E7.19225
G1 X111.330 Y106.670 E7.25490
G1 X110.000 Y106.800 E7.31792
G1 X69.000 Y106.800 E9.25136
G1 X67.390 Y106.610 E9.32781
G1 X65.880 Y106.040 E9.40392
G1 X36.880 Y91.040 E10.94358
G1 X35.640 Y90.220 E11.01368
G1 X34.610 Y89.150 E11.08372
G1 X33.840 Y87.880 E11.15376
G1 X33.360 Y86.480 E11.22355
G1 X33.200 Y85.000 E11.29375
G1 X33.200 Y50.000 E12.94424
G1 X33.330 Y48.670 E13.00726
G1 X33.720 Y47.400 E13.06991
G1 X34.350 Y46.220 E13.13299
G1 X35.190 Y45.190 E13.19567
G1 X36.174 Y44.388 E13.25551
G1 X36.440 Y44.680 F4500.000
G1 X37.550 Y44.090 E13.31479 F3000
G1 X38.750 Y43.720 E13.37401
G1 X40.000 Y43.600 E13.43323
G1 X81.000 Y43.600 E15.36666
G1 X82.510 Y43.780 E15.43838
G1 X83.940 Y44.320 E15.51046
G1 X112.940 Y59.320 E17.05012
G1 X114.100 Y60.090 E17.11578
G1 X115.070 Y61.100 E17.18181
G1 X115.800 Y62.290 E17.24765
G1 X116.250 Y63.610 E17.31341
G1 X116.400 Y65.000 E17.37934
G1 X116.400 Y100.000 E19.02984
G1 X116.280 Y101.250 E19.08905
G1 X115.910 Y102.450 E19.14827
G1 X115.320 Y103.560 E19.20755
G1 X114.530 Y104.530 E19.26654
G1 X113.560 Y105.320 E19.32554
G1 X112.450 Y105.910 E19.38482
G1 X111.250 Y106.280 E19.44403
G1 X110.000 Y106.400 E19.50325
G1 X69.000 Y106.400 E21.43669
G1 X67.490 Y106.220 E21.50840
G1 X66.060 Y105.680 E21.58048
G1 X37.060 Y90.680 E23.12014
G1 X35.900 Y89.910 E23.18580
G1 X34.930 Y88.900 E23.25184
G1 X34.200 Y87.710 E23.31767
G1 X33.750 Y86.390 E23.38344
G1 X33.600 Y85.000 E23.44936
G1 X33.600 Y50.000 E25.09986
G1 X33.720 Y48.750 E25.15908
G1 X34.090 Y47.550 E25.21829
G1 X34.680 Y46.440 E25.27757
G1 X35.470 Y45.470 E25.33657
G1 X36.393 Y44.718 E25.39273
G1 F1800.000 E24.39273
G92 E0
G1 X94.650 Y70.150 F4500.000
G1 E1.00000 F1800.000
M106 S255
G1 X98.900 Y70.150 E1.20988 F3000
G1 X98.900 Y69.150 E1.25926
G1 X100.293 Y69.150 E1.32806
G1 X100.293 Y67.623 E1.40346
G1 X101.961 Y67.081 E1.49005
G1 X102.992 Y68.500 E1.57665
G1 X102.519 Y69.150 E1.61632
G1 X104.100 Y69.150 E1.69438
G1 X104.100 Y70.150 E1.74376
G1 X108.350 Y70.150 E1.95363
G1 X108.350 Y94.850 E3.17339
G1 X104.100 Y94.850 E3.38326
G1 X104.100 Y95.850 E3.43265
G1 X102.519 Y95.850 E3.51070
G1 X102.992 Y96.500 E3.55038
G1 X101.961 Y97.919 E3.63697
G1 X100.293 Y97.377 E3.72357
G1 X100.293 Y95.850 E3.79896
G1 X98.900 Y95.850 E3.86776
G1 X98.900 Y94.850 E3.91714
G1 X94.650 Y94.850 E4.12702
G1 X94.650 Y70.210 E5.34381
M106 S89
G1 X95.050 Y70.550 F4500.000
M106 S255
G1 X99.300 Y70.550 E5.55369 F3000
G1 X99.300 Y69.550 E5.60307
G1 X101.371 Y69.550 E5.70532
G1 X101.407 Y69.318 E5.71691
G1 X100.693 Y69.086 E5.75398
G1 X100.693 Y67.914 E5.81188
G1 X101.808 Y67.552 E5.86977
G1 X102.497 Y68.500 E5.92766
G1 X101.734 Y69.550 E5.99175
G1 X103.700 Y69.550 E6.08882
G1 X103.700 Y70.550 E6.13820
G1 X107.950 Y70.550 E6.34808
G1 X107.950 Y94.450 E7.52833
G1 X103.700 Y94.450 E7.73820
G1 X103.700 Y95.450 E7.78758
G1 X101.734 Y95.450 E7.88465
G1 X102.497 Y96.500 E7.94874
G1 X101.808 Y97.448 E8.00663
G1 X100.693 Y97.086 E8.06453
G1 X100.693 Y95.914 E8.12241
G1 X101.407 Y95.682 E8.15949
G1 X101.371 Y95.450 E8.17109
G1 X99.300 Y95.450 E8.27334
G1 X99.300 Y94.450 E8.32272
G1 X95.050 Y94.450 E8.53260
G1 X95.050 Y70.610 E9.70988
M106 S89
G1 X95.050 Y70.150 F4500.000
G1 X94.250 Y69.750 F4500.000
M106 S255
G1 X94.250 Y95.250 E10.96914 F3000
G1 X98.500 Y95.250 E11.17902
G1 X98.500 Y96.250 E11.22840
G1 X99.893 Y96.250 E11.29720
G1 X99.893 Y97.667 E11.36719
G1 X102.114 Y98.389 E11.48249
G1 X103.486 Y96.500 E11.59779
G1 X103.304 Y96.250 E11.61305
G1 X104.500 Y96.250 E11.67209
G1 X104.500 Y95.250 E11.72147
G1 X109.000 Y95.250 E11.94370
G1 X109.000 Y99.000 E12.12888
G1 X70.000 Y99.000 E14.05481
G1 X70.000 Y97.000 E14.15357
G1 X87.588 Y97.000 E15.02213
G1 X89.857 Y96.140 E15.14197
G1 X91.454 Y94.338 E15.26085
G1 X92.000 Y92.121 E15.37356
G1 X92.000 Y72.879 E16.32383
G1 X91.454 Y70.662 E16.43654
G1 X89.857 Y68.860 E16.55543
G1 X87.588 Y68.000 E16.67526
G1 X70.000 Y68.000 E17.54383
G1 X70.000 Y66.000 E17.64259
G1 X109.000 Y66.000 E19.56852
G1 X109.000 Y69.750 E19.75370
G1 X104.500 Y69.750 E19.97592
G1 X104.500 Y68.750 E20.02531
G1 X103.304 Y68.750 E20.08435
G1 X103.486 Y68.500 E20.09961
G1 X102.114 Y66.611 E20.21490
G1 X99.893 Y67.333 E20.33020
G1 X99.893 Y68.750 E20.40020
G1 X98.500 Y68.750 E20.46900
G1 X98.500 Y69.750 E20.51838
G1 X94.310 Y69.750 E20.72530
M106 S89
G1 F1800.000 E19.72530
G92 E0
G1 X91.089 Y70.854 F4500.000
G1 E1.00000 F1800.000
M106 S255
G1 X89.623 Y69.200 E1.10915 F3000
G1 X87.557 Y68.416 E1.21830
G1 X87.100 Y68.471 E1.24102
G1 X87.100 Y68.400 E1.24453
G1 X69.600 Y68.400 E2.10873
G1 X69.600 Y65.600 E2.24700
G1 X109.400 Y65.600 E4.21243
G1 X109.400 Y99.400 E5.88157
G1 X69.600 Y99.400 E7.84700
G1 X69.600 Y96.600 E7.98527
G1 X87.100 Y96.600 E8.84947
G1 X87.100 Y96.529 E8.85298
G1 X87.557 Y96.584 E8.87570
G1 X89.623 Y95.800 E8.98485
G1 X91.089 Y94.146 E9.09400
G1 X91.600 Y92.073 E9.19944
G1 X91.600 Y72.927 E10.14491
G1 X91.103 Y70.912 E10.24739
M106 S89
G1 X90.724 Y71.045 F4500.000
M106 S255
G1 X89.389 Y69.539 E10.34680 F3000
G1 X87.507 Y68.825 E10.44622
G1 X86.700 Y68.923 E10.48636
G1 X86.700 Y68.800 E10.49242
G1 X69.200 Y68.800 E11.35662
G1 X69.200 Y65.200 E11.53439
G1 X109.800 Y65.200 E13.53933
G1 X109.800 Y99.800 E15.24797
G1 X69.200 Y99.800 E17.25291
G1 X69.200 Y96.200 E17.43069
G1 X86.700 Y96.200 E18.29489
G1 X86.700 Y96.077 E18.30095
G1 X87.507 Y96.175 E18.34109
G1 X89.389 Y95.461 E18.44050
G1 X90.724 Y93.955 E18.53991
G1 X91.200 Y92.024 E18.63809
G1 X91.200 Y72.976 E19.57876
G1 X90.739 Y71.104 E19.67398
M106 S89
G1 X90.758 Y70.981 F4500.000
G1 F1800.000 E18.67398
G92 E0
G1 X55.350 Y79.850 F4500.000
G1 E1.00000 F1800.000
M106 S255
G1 X51.100 Y79.850 E1.20988 F3000
G1 X51.100 Y80.850 E1.25926
G1 X49.707 Y80.850 E1.32806
G1 X49.707 Y82.377 E1.40345
G1 X48.039 Y82.919 E1.49005
G1 X47.008 Y81.500 E1.57664
G1 X47.481 Y80.850 E1.61632
G1 X45.900 Y80.850 E1.69437
G1 X45.900 Y79.850 E1.74376
G1 X41.650 Y79.850 E1.95363
G1 X41.650 Y55.150 E3.17339
G1 X45.900 Y55.150 E3.38326
G1 X45.900 Y54.150 E3.43265
G1 X47.481 Y54.150 E3.51070
G1 X47.008 Y53.500 E3.55037
G1 X48.039 Y52.081 E3.63697
G1 X49.707 Y52.623 E3.72357
G1 X49.707 Y54.150 E3.79896
G1 X51.100 Y54.150 E3.86776
G1 X51.100 Y55.150 E3.91714
G1 X55.350 Y55.150 E4.12702
G1 X55.350 Y79.790 E5.34381
M106 S89
G1 X54.950 Y79.450 F4500.000
M106 S255
G1 X50.700 Y79.450 E5.55369 F3000
G1 X50.700 Y80.450 E5.60307
G1 X48.629 Y80.450 E5.70532
G1 X48.593 Y80.682 E5.71691
G1 X49.307 Y80.914 E5.75399
G1 X49.307 Y82.086 E5.81188
G1 X48.192 Y82.448 E5.86977
G1 X47.503 Y81.500 E5.92767
G1 X48.266 Y80.450 E5.99176
G1 X46.300 Y80.450 E6.08882
G1 X46.300 Y79.450 E6.13820
G1 X42.050 Y79.450 E6.34808
G1 X42.050 Y55.550 E7.52833
G1 X46.300 Y55.550 E7.73820
G1 X46.300 Y54.550 E7.78759
G1 X48.266 Y54.550 E7.88465
G1 X47.503 Y53.500 E7.94875
G1 X48.192 Y52.552 E8.00664
G1 X49.307 Y52.914 E8.06453
G1 X49.307 Y54.086 E8.12242
G1 X48.593 Y54.318 E8.15950
G1 X48.629 Y54.550 E8.17109
G1 X50.700 Y54.550 E8.27334
G1 X50.700 Y55.550 E8.32273
G1 X54.950 Y55.550 E8.53260
G1 X54.950 Y79.390 E9.70989
M106 S89
G1 X54.950 Y79.850 F4500.000
G1 X55.750 Y80.250 F4500.000
M106 S255
G1 X55.750 Y54.750 E10.96914 F3000
G1 X51.500 Y54.750 E11.17902
G1 X51.500 Y53.750 E11.22840
G1 X50.107 Y53.750 E11.29720
G1 X50.107 Y52.333 E11.36720
G1 X47.886 Y51.611 E11.48250
G1 X46.514 Y53.500 E11.59779
G1 X46.696 Y53.750 E11.61305
G1 X45.500 Y53.750 E11.67209
G1 X45.500 Y54.750 E11.72148
G1 X41.000 Y54.750 E11.94370
G1 X41.000 Y51.000 E12.12889
G1 X80.000 Y51.000 E14.05481
G1 X80.000 Y53.000 E14.15358
G1 X62.412 Y53.000 E15.02214
G1 X60.143 Y53.860 E15.14197
G1 X58.546 Y55.662 E15.26086
G1 X58.000 Y57.879 E15.37357
G1 X58.000 Y77.121 E16.32384
G1 X58.546 Y79.338 E16.43655
G1 X60.143 Y81.140 E16.55543
G1 X62.412 Y82.000 E16.67527
G1 X80.000 Y82.000 E17.54383
G1 X80.000 Y84.000 E17.64260
G1 X41.000 Y84.000 E19.56852
G1 X41.000 Y80.250 E19.75371
G1 X45.500 Y80.250 E19.97593
G1 X45.500 Y81.250 E20.02531
G1 X46.696 Y81.250 E20.08435
G1 X46.514 Y81.500 E20.09961
G1 X47.886 Y83.389 E20.21491
G1 X50.107 Y82.667 E20.33021
G1 X50.107 Y81.250 E20.40020
G1 X51.500 Y81.250 E20.46900
G1 X51.500 Y80.250 E20.51838
G1 X55.690 Y80.250 E20.72530
M106 S89
G1 F1800.000 E19.72530
G92 E0
G1 X58.911 Y79.146 F4500.000
G1 E1.00000 F1800.000
M106 S255
G1 X60.377 Y80.800 E1.10915 F3000
G1 X62.443 Y81.584 E1.21830
G1 X62.900 Y81.529 E1.24101
G1 X62.900 Y81.600 E1.24453
G1 X80.400 Y81.600 E2.10873
G1 X80.400 Y84.400 E2.24700
G1 X40.600 Y84.400 E4.21243
G1 X40.600 Y50.600 E5.88157
G1 X80.400 Y50.600 E7.84700
G1 X80.400 Y53.400 E7.98527
G1 X62.900 Y53.400 E8.84947
G1 X62.900 Y53.471 E8.85298
G1 X62.443 Y53.416 E8.87570
G1 X60.377 Y54.200 E8.98485
G1 X58.911 Y55.854 E9.09400
G1 X58.400 Y57.927 E9.19944
G1 X58.400 Y77.073 E10.14491
G1 X58.897 Y79.088 E10.24739
M106 S89
G1 X59.276 Y78.955 F4500.000
M106 S255
G1 X60.611 Y80.461 E10.34680 F3000
G1 X62.493 Y81.175 E10.44622
G1 X63.300 Y81.077 E10.48636
G1 X63.300 Y81.200 E10.49242
G1 X80.800 Y81.200 E11.35661
G1 X80.800 Y84.800 E11.53439
G1 X40.200 Y84.800 E13.53933
G1 X40.200 Y50.200 E15.24797
G1 X80.800 Y50.200 E17.25291
G1 X80.800 Y53.800 E17.43069
G1 X63.300 Y53.800 E18.29489
G1 X63.300 Y53.923 E18.30094
G1 X62.493 Y53.825 E18.34108
G1 X60.611 Y54.539 E18.44050
G1 X59.276 Y56.045 E18.53991
G1 X58.800 Y57.976 E18.63809
G1 X58.800 Y77.024 E19.57876
G1 X59.261 Y78.896 E19.67397
M106 S89
G1 X59.090 Y79.309 F4500.000
G1 F1800.000 E18.67397
G92 E0
G1 X102.532 Y98.450 F4500.000
G1 E1.00000 F1800.000
M106 S255
G1 X105.460 Y95.521 E1.20449 F3000
G1 X106.103 Y95.521 E1.23624
G1 X102.896 Y98.729 E1.46022
G1 X103.539 Y98.729 E1.49197
G1 X106.746 Y95.521 E1.71594
G1 X107.389 Y95.521 E1.74769
G1 X104.182 Y98.729 E1.97166
G1 X104.825 Y98.729 E2.00342
G1 X108.032 Y95.521 E2.22739
G1 X108.675 Y95.521 E2.25914
G1 X105.468 Y98.729 E2.48311
G1 X106.111 Y98.729 E2.51486
G1 X108.729 Y96.111 E2.69766
G1 X108.729 Y96.754 E2.72942
G1 X106.754 Y98.729 E2.86731
G1 X107.397 Y98.729 E2.89907
G1 X108.729 Y97.397 E2.99205
G1 X108.729 Y98.040 E3.02381
G1 X108.040 Y98.729 E3.07189
G1 X108.683 Y98.729 E3.10364
G1 X108.729 Y98.683 E3.10682
M106 S89
G1 F1800.000 E2.10682
G92 E0
G1 X104.817 Y95.521 F4500.000
G1 E1.00000 F1800.000
M106 S255
G1 X104.771 Y95.567 E1.00318 F3000
M106 S89
G1 X103.817 Y96.521 F4500.000
M106 S255
G1 X103.777 Y96.562 E1.00598 F3000
M106 S89
G1 F1800.000 E0.00598
G92 E0
G1 X101.469 Y98.600 F4500.000
G1 E1.00000 F1800.000
G1 X101.449 Y98.620 E1.00133 F600
G1 F1800.000 E0.00133
G92 E0
G1 X108.730 Y94.553 F4500.000
G1 E1.00000 F1800.000
G1 X109.020 Y94.263 E1.01939 F600
G1 X108.730 Y93.986 E1.03835 F600
G1 X109.020 Y93.696 E1.05775 F600
G1 X108.730 Y93.419 E1.07670 F600
G1 X109.020 Y93.129 E1.09610 F600
G1 X108.730 Y92.852 E1.11506 F600
G1 X109.020 Y92.562 E1.13445 F600
G1 X108.730 Y92.285 E1.15341 F600
G1 X109.020 Y91.995 E1.17280 F600
G1 X108.730 Y91.718 E1.19176 F600
G1 X109.020 Y91.428 E1.21115 F600
G1 X108.730 Y91.151 E1.23011 F600
G1 X109.020 Y90.861 E1.24950 F600
G1 X108.730 Y90.584 E1.26846 F600
G1 X109.020 Y90.294 E1.28786 F600
G1 X108.730 Y90.017 E1.30682 F600
G1 X109.020 Y89.727 E1.32621 F600
G1 X108.730 Y89.450 E1.34517 F600
G1 X109.020 Y89.159 E1.36456 F600
G1 X108.730 Y88.883 E1.38352 F600
G1 X109.020 Y88.592 E1.40291 F600
G1 X108.730 Y88.316 E1.42187 F600
G1 X109.020 Y88.025 E1.44126 F600
G1 X108.730 Y87.748 E1.46022 F600
G1 X109.020 Y87.458 E1.47962 F600
G1 X108.730 Y87.181 E1.49858 F600
G1 X109.020 Y86.891 E1.51797 F600
G1 X108.730 Y86.614 E1.53693 F600
G1 X109.020 Y86.324 E1.55632 F600
G1 X108.730 Y86.047 E1.57528 F600
G1 X109.020 Y85.757 E1.59467 F600
G1 X108.730 Y85.480 E1.61363 F600
G1 X109.020 Y85.190 E1.63302 F600
G1 X108.730 Y84.913 E1.65198 F600
G1 X109.020 Y84.623 E1.67138 F600
G1 X108.730 Y84.346 E1.69033 F600
G1 X109.020 Y84.056 E1.70973 F600
G1 X108.730 Y83.779 E1.72869 F600
G1 X109.020 Y83.489 E1.74808 F600
G1 X108.730 Y83.212 E1.76704 F600
G1 X109.020 Y82.922 E1.78643 F600
G1 X108.730 Y82.645 E1.80539 F600
G1 X109.020 Y82.355 E1.82478 F600
G1 X108.730 Y82.078 E1.84374 F600
G1 X109.020 Y81.788 E1.86314 F600
G1 X108.730 Y81.511 E1.88209 F600
G1 X109.020 Y81.221 E1.90149 F600
G1 X108.730 Y80.944 E1.92045 F600
G1 X109.020 Y80.654 E1.93984 F600
G1 X108.730 Y80.377 E1.95880 F600
G1 X109.020 Y80.087 E1.97819 F600
G1 X108.730 Y79.810 E1.99715 F600
G1 X109.020 Y79.520 E2.01654 F600
G1 X108.730 Y79.243 E2.03550 F600
