; generated by Slic3r 1.0.0RC2 on 2014-08-31 at 18:46:15

; layer_height = 0.3
; perimeters = 3
; top_solid_layers = 3
; bottom_solid_layers = 3
; fill_density = 0.15
; perimeter_speed = 50
; infill_speed = 50
; travel_speed = 75
; nozzle_diameter = 0.4
; filament_diameter = 1.8
; extrusion_multiplier = 1
; perimeters extrusion width = 0.40mm
; infill extrusion width = 0.42mm
; solid infill extrusion width = 0.42mm
; top infill extrusion width = 0.42mm
; support material extrusion width = 0.40mm
; first layer extrusion width = 0.60mm

G21 ; set units to millimeters
M107
M104 S195 ; set temperature
G28 X0 Y0
G29
M109 S195 ; wait for temperature to be reached
G90 ; use absolute coordinates
G92 E0
M82 ; use absolute distances for extrusion
M106 S89
G1 F1800.000 E-1.00000
G92 E0
G1 Z0.300 F4500.000
G1 X47.171 Y64.890 F4500.000
G1 E1.00000 F1800.000
G1 X48.821 Y63.810 E1.09300 F300.000
G1 X49.821 Y63.270 E1.14659
G1 X50.891 Y62.900 E1.19998
G1 X52.811 Y62.420 E1.29331
G1 X53.491 Y62.290 E1.32595
G1 X54.181 Y62.230 E1.35861
G1 X54.951 Y62.200 E1.39495
G1 X94.951 Y62.200 E3.28123
G1 X95.771 Y62.250 E3.31997
G1 X97.251 Y62.430 E3.39028
G1 X98.231 Y62.620 E3.43736
G1 X99.161 Y62.950 E3.48389
G1 X100.961 Y63.740 E3.57659
G1 X101.951 Y64.270 E3.62954
G1 X102.831 Y64.960 E3.68228
G1 X104.291 Y66.300 E3.77573
G1 X105.051 Y67.130 E3.82880
G1 X105.671 Y68.080 E3.88229
G1 X106.611 Y69.820 E3.97556
G1 X107.061 Y70.850 E4.02856
G1 X107.341 Y71.940 E4.08163
G1 X107.661 Y73.880 E4.17435
G1 X107.751 Y74.990 E4.22687
G1 X107.661 Y76.110 E4.27985
G1 X107.341 Y78.050 E4.37257
G1 X107.061 Y79.140 E4.42564
G1 X106.611 Y80.170 E4.47865
G1 X105.671 Y81.910 E4.57191
G1 X105.051 Y82.860 E4.62541
G1 X104.291 Y83.690 E4.67848
G1 X102.831 Y85.030 E4.77193
G1 X101.951 Y85.720 E4.82466
G1 X100.961 Y86.250 E4.87762
G1 X99.161 Y87.040 E4.97031
G1 X98.251 Y87.360 E5.01580
G1 X97.301 Y87.550 E5.06149
G1 X95.821 Y87.740 E5.13186
G1 X94.951 Y87.800 E5.17298
G1 X54.951 Y87.800 E7.05926
G1 X54.041 Y87.760 E7.10221
G1 X53.421 Y87.690 E7.13164
G1 X52.811 Y87.570 E7.16095
G1 X50.891 Y87.090 E7.25428
G1 X49.821 Y86.720 E7.30767
G1 X48.821 Y86.180 E7.36127
G1 X47.171 Y85.100 E7.45426
G1 X46.281 Y84.410 E7.50737
G1 X45.521 Y83.580 E7.56044
G1 X44.311 Y82.020 E7.65354
G1 X43.701 Y81.080 E7.70638
G1 X43.251 Y80.050 E7.75938
G1 X42.611 Y78.180 E7.85259
G1 X42.331 Y77.100 E7.90520
G1 X42.241 Y75.980 E7.95819
G1 X42.241 Y74.010 E8.05109
G1 X42.331 Y72.890 E8.10407
G1 X42.611 Y71.810 E8.15669
G1 X43.251 Y69.940 E8.24989
G1 X43.701 Y68.910 E8.30290
G1 X44.311 Y67.970 E8.35574
G1 X45.521 Y66.410 E8.44884
G1 X46.281 Y65.580 E8.50191
G1 X47.123 Y64.927 E8.55219
G1 X47.381 Y65.230 F4500.000
G1 X49.031 Y64.150 E8.64518 F300.000
G1 X49.981 Y63.640 E8.69603
G1 X50.991 Y63.290 E8.74644
G1 X52.911 Y62.810 E8.83976
G1 X53.551 Y62.690 E8.87047
G1 X54.201 Y62.630 E8.90125
G1 X54.951 Y62.600 E8.93665
G1 X94.951 Y62.600 E10.82293
G1 X95.721 Y62.650 E10.85932
G1 X97.201 Y62.830 E10.92962
G1 X98.121 Y63.010 E10.97383
G1 X99.001 Y63.320 E11.01783
G1 X100.801 Y64.110 E11.11053
G1 X101.731 Y64.610 E11.16032
G1 X102.561 Y65.250 E11.20974
G1 X104.021 Y66.590 E11.30320
G1 X104.741 Y67.380 E11.35360
G1 X105.321 Y68.270 E11.40370
G1 X106.261 Y70.010 E11.49696
G1 X106.691 Y70.980 E11.54699
G1 X106.941 Y72.010 E11.59698
G1 X107.261 Y73.950 E11.68970
G1 X107.351 Y74.990 E11.73892
G1 X107.261 Y76.040 E11.78862
G1 X106.941 Y77.980 E11.88134
G1 X106.691 Y79.010 E11.93132
G1 X106.261 Y79.980 E11.98136
G1 X105.321 Y81.720 E12.07462
G1 X104.741 Y82.610 E12.12471
G1 X104.021 Y83.400 E12.17512
G1 X102.561 Y84.740 E12.26857
G1 X101.731 Y85.380 E12.31800
G1 X100.801 Y85.880 E12.36779
G1 X99.001 Y86.670 E12.46049
G1 X98.141 Y86.980 E12.50360
G1 X97.241 Y87.160 E12.54688
G1 X95.761 Y87.350 E12.61724
G1 X94.951 Y87.400 E12.65551
G1 X54.951 Y87.400 E14.54179
G1 X54.071 Y87.360 E14.58333
G1 X53.481 Y87.300 E14.61130
G1 X52.911 Y87.180 E14.63877
G1 X50.991 Y86.700 E14.73210
G1 X49.981 Y86.350 E14.78250
G1 X49.031 Y85.840 E14.83335
G1 X47.381 Y84.760 E14.92635
G1 X46.551 Y84.110 E14.97606
G1 X45.831 Y83.330 E15.02612
G1 X44.621 Y81.770 E15.11922
G1 X44.051 Y80.890 E15.16866
G1 X43.621 Y79.920 E15.21870
G1 X42.981 Y78.050 E15.31190
G1 X42.731 Y77.030 E15.36143
G1 X42.641 Y75.980 E15.41112
G1 X42.641 Y74.010 E15.50402
G1 X42.731 Y72.960 E15.55372
G1 X42.981 Y71.940 E15.60324
G1 X43.621 Y70.070 E15.69645
G1 X44.051 Y69.100 E15.74648
G1 X44.621 Y68.220 E15.79593
G1 X45.831 Y66.660 E15.88903
G1 X46.551 Y65.880 E15.93908
G1 X47.334 Y65.267 E15.98597
G1 F1800.000 E14.98597
G92 E0
G1 Z0.600 F4500.000
G1 X47.171 Y64.890 F4500.000
G1 E1.00000 F1800.000
G1 X48.821 Y63.810 E1.09300 F3000
G1 X49.821 Y63.270 E1.14659
G1 X50.891 Y62.900 E1.19998
G1 X52.811 Y62.420 E1.29331
G1 X53.491 Y62.290 E1.32595
G1 X54.181 Y62.230 E1.35861
G1 X54.951 Y62.200 E1.39495
G1 X94.951 Y62.200 E3.28123
G1 X95.771 Y62.250 E3.31997
G1 X97.251 Y62.430 E3.39028
G1 X98.231 Y62.620 E3.43736
G1 X99.161 Y62.950 E3.48389
G1 X100.961 Y63.740 E3.57659
G1 X101.951 Y64.270 E3.62954
G1 X102.831 Y64.960 E3.68228
G1 X104.291 Y66.300 E3.77573
G1 X105.051 Y67.130 E3.82880
G1 X105.671 Y68.080 E3.88229
G1 X106.611 Y69.820 E3.97556
G1 X107.061 Y70.850 E4.02856
G1 X107.341 Y71.940 E4.08163
G1 X107.661 Y73.880 E4.17435
G1 X107.751 Y74.990 E4.22687
G1 X107.661 Y76.110 E4.27985
G1 X107.341 Y78.050 E4.37257
G1 X107.061 Y79.140 E4.42564
G1 X106.611 Y80.170 E4.47865
G1 X105.671 Y81.910 E4.57191
G1 X105.051 Y82.860 E4.62541
G1 X104.291 Y83.690 E4.67848
G1 X102.831 Y85.030 E4.77193
G1 X101.951 Y85.720 E4.82466
G1 X100.961 Y86.250 E4.87762
G1 X99.161 Y87.040 E4.97031
G1 X98.251 Y87.360 E5.01580
G1 X97.301 Y87.550 E5.06149
G1 X95.821 Y87.740 E5.13186
G1 X94.951 Y87.800 E5.17298
G1 X54.951 Y87.800 E7.05926
G1 X54.041 Y87.760 E7.10221
G1 X53.421 Y87.690 E7.13164
G1 X52.811 Y87.570 E7.16095
G1 X50.891 Y87.090 E7.25428
G1 X49.821 Y86.720 E7.30767
G1 X48.821 Y86.180 E7.36127
G1 X47.171 Y85.100 E7.45426
G1 X46.281 Y84.410 E7.50737
G1 X45.521 Y83.580 E7.56044
G1 X44.311 Y82.020 E7.65354
G1 X43.701 Y81.080 E7.70638
G1 X43.251 Y80.050 E7.75938
G1 X42.611 Y78.180 E7.85259
G1 X42.331 Y77.100 E7.90520
G1 X42.241 Y75.980 E7.95819
G1 X42.241 Y74.010 E8.05109
G1 X42.331 Y72.890 E8.10407
G1 X42.611 Y71.810 E8.15669
G1 X43.251 Y69.940 E8.24989
G1 X43.701 Y68.910 E8.30290
G1 X44.311 Y67.970 E8.35574
G1 X45.521 Y66.410 E8.44884
G1 X46.281 Y65.580 E8.50191
G1 X47.123 Y64.927 E8.55219
G1 X47.381 Y65.230 F4500.000
G1 X49.031 Y64.150 E8.64518 F3000
G1 X49.981 Y63.640 E8.69603
G1 X50.991 Y63.290 E8.74644
G1 X52.911 Y62.810 E8.83976
G1 X53.551 Y62.690 E8.87047
G1 X54.201 Y62.630 E8.90125
G1 X54.951 Y62.600 E8.93665
G1 X94.951 Y62.600 E10.82293
G1 X95.721 Y62.650 E10.85932
G1 X97.201 Y62.830 E10.92962
G1 X98.121 Y63.010 E10.97383
G1 X99.001 Y63.320 E11.01783
G1 X100.801 Y64.110 E11.11053
G1 X101.731 Y64.610 E11.16032
G1 X102.561 Y65.250 E11.20974
G1 X104.021 Y66.590 E11.30320
G1 X104.741 Y67.380 E11.35360
G1 X105.321 Y68.270 E11.40370
G1 X106.261 Y70.010 E11.49696
G1 X106.691 Y70.980 E11.54699
G1 X106.941 Y72.010 E11.59698
G1 X107.261 Y73.950 E11.68970
G1 X107.351 Y74.990 E11.73892
G1 X107.261 Y76.040 E11.78862
G1 X106.941 Y77.980 E11.88134
G1 X106.691 Y79.010 E11.93132
G1 X106.261 Y79.980 E11.98136
G1 X105.321 Y81.720 E12.07462
G1 X104.741 Y82.610 E12.12471
G1 X104.021 Y83.400 E12.17512
G1 X102.561 Y84.740 E12.26857
G1 X101.731 Y85.380 E12.31800
G1 X100.801 Y85.880 E12.36779
G1 X99.001 Y86.670 E12.46049
G1 X98.141 Y86.980 E12.50360
G1 X97.241 Y87.160 E12.54688
G1 X95.761 Y87.350 E12.61724
G1 X94.951 Y87.400 E12.65551
G1 X54.951 Y87.400 E14.54179
G1 X54.071 Y87.360 E14.58333
G1 X53.481 Y87.300 E14.61130
G1 X52.911 Y87.180 E14.63877
G1 X50.991 Y86.700 E14.73210
G1 X49.981 Y86.350 E14.78250
G1 X49.031 Y85.840 E14.83335
G1 X47.381 Y84.760 E14.92635
G1 X46.551 Y84.110 E14.97606
G1 X45.831 Y83.330 E15.02612
G1 X44.621 Y81.770 E15.11922
G1 X44.051 Y80.890 E15.16866
G1 X43.621 Y79.920 E15.21870
G1 X42.981 Y78.050 E15.31190
G1 X42.731 Y77.030 E15.36143
G1 X42.641 Y75.980 E15.41112
G1 X42.641 Y74.010 E15.50402
G1 X42.731 Y72.960 E15.55372
G1 X42.981 Y71.940 E15.60324
G1 X43.621 Y70.070 E15.69645
G1 X44.051 Y69.100 E15.74648
G1 X44.621 Y68.220 E15.79593
G1 X45.831 Y66.660 E15.88903
G1 X46.551 Y65.880 E15.93908
G1 X47.334 Y65.267 E15.98597
G1 F1800.000 E14.98597
G92 E0
G1 X90.852 Y73.505 F4500.000
G1 E1.00000 F1800.000
M106 S255
G1 X92.149 Y71.651 E1.11174 F1500
G1 X93.726 Y70.916 E1.19765
G1 X93.726 Y70.654 E1.21061
G1 X96.454 Y70.892 E1.34584
G1 X98.308 Y72.190 E1.45758
G1 X99.264 Y74.241 E1.56932
G1 X99.067 Y76.495 E1.68105
G1 X97.769 Y78.349 E1.79279
G1 X95.718 Y79.305 E1.90453
G1 X93.464 Y79.108 E2.01627
G1 X91.611 Y77.810 E2.12801
G1 X90.654 Y75.759 E2.23974
G1 X90.846 Y73.565 E2.34852
M106 S89
G1 X91.241 Y73.647 F4500.000
M106 S255
G1 X92.415 Y71.969 E2.44966 F1500
G1 X94.126 Y71.171 E2.54287
G1 X94.126 Y71.090 E2.54686
G1 X96.313 Y71.282 E2.65524
G1 X97.990 Y72.456 E2.75639
G1 X98.856 Y74.313 E2.85754
G1 X98.677 Y76.353 E2.95870
G1 X97.503 Y78.031 E3.05984
G1 X95.646 Y78.897 E3.16100
G1 X93.606 Y78.718 E3.26215
G1 X91.928 Y77.544 E3.36330
G1 X91.062 Y75.687 E3.46445
G1 X91.235 Y73.706 E3.56264
M106 S89
G1 X91.151 Y73.519 F4500.000
G1 F1800.000 E2.56264
G92 E0
G1 X59.264 Y75.759 F4500.000
G1 E1.00000 F1800.000
M106 S255
G1 X58.308 Y77.810 E1.11174 F1500
G1 X56.454 Y79.108 E1.22347
G1 X54.200 Y79.305 E1.33521
G1 X52.149 Y78.349 E1.44695
G1 X50.852 Y76.495 E1.55869
G1 X50.654 Y74.241 E1.67042
G1 X51.611 Y72.190 E1.78216
G1 X53.464 Y70.892 E1.89390
G1 X55.718 Y70.695 E2.00564
G1 X57.769 Y71.651 E2.11737
G1 X59.067 Y73.505 E2.22911
G1 X59.259 Y75.699 E2.33789
M106 S89
G1 X58.856 Y75.687 F4500.000
M106 S255
G1 X57.990 Y77.544 E2.43904 F1500
G1 X56.312 Y78.718 E2.54019
G1 X54.272 Y78.897 E2.64134
G1 X52.416 Y78.031 E2.74249
G1 X51.241 Y76.353 E2.84364
G1 X51.062 Y74.313 E2.94480
G1 X51.928 Y72.456 E3.04595
G1 X53.606 Y71.282 E3.14710
G1 X55.646 Y71.103 E3.24825
G1 X57.503 Y71.969 E3.34940
G1 X58.678 Y73.647 E3.45056
G1 X58.851 Y75.627 E3.54874
M106 S89
G1 X59.139 Y75.970 F4500.000
G1 X59.672 Y75.831 F4500.000
M106 S255
G1 X59.456 Y73.363 E3.67107 F3000
G1 X58.035 Y71.334 E3.79339
G1 X55.959 Y70.366 E3.90650
G1 X55.959 Y70.000 E3.92459
G1 X58.284 Y70.000 E4.03941
G1 X60.988 Y71.964 E4.20443
G1 X60.988 Y71.533 E4.22570
G1 X65.378 Y73.488 E4.46302
G1 X71.718 Y74.836 E4.78311
G1 X78.200 Y74.836 E5.10321
G1 X84.540 Y73.488 E5.42330
G1 X90.462 Y70.852 E5.74340
G1 X91.634 Y70.000 E5.81494
G1 X93.326 Y70.000 E5.89851
G1 X93.326 Y70.661 E5.93117
G1 X91.883 Y71.334 E6.00980
G1 X90.462 Y73.363 E6.13212
G1 X90.247 Y75.831 E6.25444
G1 X91.293 Y78.076 E6.37676
G1 X93.322 Y79.497 E6.49908
G1 X94.901 Y79.635 E6.57736
G1 X94.901 Y79.940 E6.59243
G1 X94.175 Y80.000 E6.62839
G1 X55.959 Y80.000 E8.51559
G1 X55.959 Y79.552 E8.53770
G1 X56.596 Y79.497 E8.56926
G1 X58.625 Y78.076 E8.69158
G1 X59.646 Y75.885 E8.81094
M106 S89
G1 F1800.000 E7.81094
G92 E0
G1 X60.588 Y71.179 F4500.000
G1 E1.00000 F1800.000
M106 S255
G1 X60.588 Y70.917 E1.01292 F3000
G1 X65.502 Y73.105 E1.27858
G1 X71.760 Y74.436 E1.59452
G1 X78.158 Y74.436 E1.91047
G1 X84.416 Y73.105 E2.22641
G1 X90.261 Y70.503 E2.54235
G1 X91.504 Y69.600 E2.61823
G1 X94.191 Y69.600 E2.75095
G1 X96.283 Y69.773 E2.85457
G1 X97.908 Y70.486 E2.94222
G1 X99.214 Y71.688 E3.02987
G1 X100.059 Y73.249 E3.11752
G1 X100.351 Y75.000 E3.20517
G1 X100.059 Y76.751 E3.29282
G1 X99.214 Y78.312 E3.38047
G1 X97.908 Y79.514 E3.46812
G1 X96.283 Y80.227 E3.55577
G1 X94.191 Y80.400 E3.65939
G1 X55.559 Y80.400 E5.56716
G1 X55.559 Y80.287 E5.57276
G1 X54.514 Y80.373 E5.62455
G1 X52.793 Y79.938 E5.71220
G1 X51.307 Y78.967 E5.79985
G1 X50.217 Y77.566 E5.88750
G1 X49.641 Y75.887 E5.97515
G1 X49.641 Y74.113 E6.06280
G1 X50.217 Y72.434 E6.15044
G1 X51.307 Y71.033 E6.23809
G1 X52.793 Y70.062 E6.32574
G1 X54.514 Y69.627 E6.41339
G1 X55.559 Y69.713 E6.46519
G1 X55.559 Y69.600 E6.47078
G1 X58.414 Y69.600 E6.61178
G1 X60.539 Y71.144 E6.74148
M106 S89
G1 X60.188 Y70.394 F4500.000
M106 S255
G1 X60.188 Y70.301 E6.74605 F3000
G1 X65.626 Y72.723 E7.04005
G1 X71.802 Y74.036 E7.35184
G1 X78.116 Y74.036 E7.66363
G1 X84.292 Y72.723 E7.97542
G1 X90.060 Y70.155 E8.28721
G1 X91.374 Y69.200 E8.36744
G1 X94.759 Y69.200 E8.53461
G1 X94.759 Y69.246 E8.53686
G1 X96.382 Y69.380 E8.61729
G1 X98.130 Y70.147 E8.71153
G1 X99.534 Y71.439 E8.80577
G1 X100.442 Y73.118 E8.90001
G1 X100.756 Y75.000 E8.99426
G1 X100.442 Y76.882 E9.08850
G1 X99.534 Y78.561 E9.18274
G1 X98.130 Y79.853 E9.27698
G1 X96.382 Y80.620 E9.37122
G1 X94.759 Y80.754 E9.45165
G1 X94.759 Y80.800 E9.45390
G1 X55.159 Y80.800 E11.40946
G1 X55.159 Y80.721 E11.41335
G1 X54.480 Y80.777 E11.44698
G1 X52.630 Y80.309 E11.54123
G1 X51.033 Y79.265 E11.63547
G1 X49.861 Y77.759 E11.72971
G1 X49.241 Y75.954 E11.82395
G1 X49.241 Y74.046 E11.91819
G1 X49.861 Y72.241 E12.01243
G1 X51.033 Y70.735 E12.10667
G1 X52.630 Y69.691 E12.20092
G1 X54.480 Y69.223 E12.29516
G1 X55.159 Y69.279 E12.32879
G1 X55.159 Y69.200 E12.33268
G1 X58.544 Y69.200 E12.49985
G1 X60.139 Y70.359 E12.59720
M106 S89
G1 X60.278 Y70.413 F4500.000
G1 F1800.000 E11.59720
G92 E0
G1 X57.489 Y70.324 F4500.000
G1 E1.00000 F1800.000
M106 S255
G1 X57.541 Y70.272 E1.00367 F3000
G1 X58.046 Y70.410 E1.02951
G1 X57.616 Y70.839 E1.05952
G1 X58.054 Y71.044 E1.08340
G1 X58.418 Y70.680 E1.10880
G1 X58.790 Y70.950 E1.13152
G1 X58.383 Y71.358 E1.15996
G1 X58.647 Y71.736 E1.18275
G1 X59.162 Y71.221 E1.21870
G1 X59.535 Y71.491 E1.24142
G1 X58.912 Y72.114 E1.28489
G1 X59.177 Y72.492 E1.30767
G1 X59.907 Y71.762 E1.35865
G1 X60.422 Y71.889 E1.38487
G1 X59.441 Y72.869 E1.45335
G1 X59.706 Y73.247 E1.47614
G1 X60.794 Y72.159 E1.55213
G1 X61.526 Y72.070 E1.58853
G1 X59.769 Y73.827 E1.71124
G1 X59.821 Y74.418 E1.74053
G1 X61.971 Y72.268 E1.89067
G1 X62.415 Y72.466 E1.91471
G1 X59.872 Y75.009 E2.09230
G1 X59.924 Y75.600 E2.12159
G1 X62.860 Y72.664 E2.32662
G1 X63.304 Y72.862 E2.35065
G1 X59.653 Y76.514 E2.60566
M106 S89
G1 X59.091 Y77.718 F4500.000
M106 S255
G1 X63.749 Y73.060 E2.93094 F3000
G1 X64.194 Y73.258 E2.95497
G1 X57.723 Y79.728 E3.40686
G1 X58.366 Y79.728 E3.43859
G1 X64.638 Y73.456 E3.87666
G1 X65.083 Y73.654 E3.90069
G1 X59.008 Y79.728 E4.32493
G1 X59.651 Y79.728 E4.35666
G1 X65.573 Y73.807 E4.77021
G1 X66.102 Y73.920 E4.79696
G1 X60.294 Y79.728 E5.20265
G1 X60.936 Y79.728 E5.23438
G1 X66.632 Y74.032 E5.63219
G1 X67.162 Y74.145 E5.65895
G1 X61.579 Y79.728 E6.04889
G1 X62.221 Y79.728 E6.08063
G1 X67.692 Y74.258 E6.46271
G1 X68.222 Y74.370 E6.48946
G1 X62.864 Y79.728 E6.86368
G1 X63.507 Y79.728 E6.89541
G1 X68.752 Y74.483 E7.26176
G1 X69.282 Y74.595 E7.28851
G1 X64.149 Y79.728 E7.64699
G1 X64.792 Y79.728 E7.67872
G1 X69.812 Y74.708 E8.02934
G1 X70.342 Y74.821 E8.05609
G1 X65.434 Y79.728 E8.39884
G1 X66.077 Y79.728 E8.43057
G1 X70.872 Y74.933 E8.76545
G1 X71.402 Y75.046 E8.79220
G1 X66.720 Y79.728 E9.11922
G1 X67.362 Y79.728 E9.15095
G1 X71.983 Y75.107 E9.47369
G1 X72.626 Y75.107 E9.50542
G1 X68.005 Y79.728 E9.82817
G1 X68.647 Y79.728 E9.85990
G1 X73.269 Y75.107 E10.18264
G1 X73.911 Y75.107 E10.21438
G1 X69.290 Y79.728 E10.53712
G1 X69.932 Y79.728 E10.56885
G1 X74.554 Y75.107 E10.89159
G1 X75.196 Y75.107 E10.92333
G1 X70.575 Y79.728 E11.24607
G1 X71.218 Y79.728 E11.27780
G1 X75.839 Y75.107 E11.60055
G1 X76.482 Y75.107 E11.63228
G1 X71.860 Y79.728 E11.95502
G1 X72.503 Y79.728 E11.98675
G1 X77.124 Y75.107 E12.30950
G1 X77.767 Y75.107 E12.34123
G1 X73.145 Y79.728 E12.66397
G1 X73.788 Y79.728 E12.69571
G1 X78.458 Y75.058 E13.02186
G1 X79.274 Y74.885 E13.06306
G1 X74.431 Y79.728 E13.40132
G1 X75.073 Y79.728 E13.43305
G1 X80.090 Y74.711 E13.78343
G1 X80.906 Y74.538 E13.82463
G1 X75.716 Y79.728 E14.18712
G1 X76.358 Y79.728 E14.21886
G1 X81.722 Y74.365 E14.59346
G1 X82.538 Y74.191 E14.63466
G1 X77.001 Y79.728 E15.02138
G1 X77.644 Y79.728 E15.05312
G1 X83.355 Y74.018 E15.45195
G1 X84.171 Y73.844 E15.49315
G1 X78.286 Y79.728 E15.90410
G1 X78.929 Y79.728 E15.93583
G1 X85.138 Y73.519 E16.36950
M106 S89
G1 X86.297 Y73.003 F4500.000
