; generated by Slic3r 1.0.0RC2 on 2014-09-09 at 19:06:56

; layer_height = 0.3
; perimeters = 3
; top_solid_layers = 3
; bottom_solid_layers = 3
; fill_density = 0.15
; perimeter_speed = 50
; infill_speed = 50
; travel_speed = 75
; nozzle_diameter = 0.4
; filament_diameter = 1.8
; extrusion_multiplier = 1
; perimeters extrusion width = 0.40mm
; infill extrusion width = 0.42mm
; solid infill extrusion width = 0.42mm
; top infill extrusion width = 0.42mm
; support material extrusion width = 0.40mm
; first layer extrusion width = 0.60mm

G21 ; set units to millimeters
M107
M104 S195 ; set temperature
G28 X0 Y0
G29
M109 S195 ; wait for temperature to be reached
G90 ; use absolute coordinates
G92 E0
M82 ; use absolute distances for extrusion
M106 S89
G1 F1800.000 E-1.00000
G92 E0
G1 Z0.300 F4500.000
G1 X20.821 Y54.270 F4500.000
G1 E1.00000 F1800.000
G1 X21.891 Y53.900 E1.05339 F300.000
G1 X23.811 Y53.420 E1.14672
G1 X24.491 Y53.290 E1.17937
G1 X25.181 Y53.230 E1.21203
G1 X25.951 Y53.200 E1.24836
G1 X123.951 Y53.200 E5.86975
G1 X124.771 Y53.250 E5.90849
G1 X126.251 Y53.430 E5.97880
G1 X127.231 Y53.620 E6.02587
G1 X128.161 Y53.950 E6.07241
G1 X129.961 Y54.740 E6.16511
G1 X130.951 Y55.270 E6.21806
G1 X131.831 Y55.960 E6.27080
G1 X133.291 Y57.300 E6.36425
G1 X134.051 Y58.130 E6.41732
G1 X134.671 Y59.080 E6.47081
G1 X135.611 Y60.820 E6.56407
G1 X136.061 Y61.850 E6.61708
G1 X136.341 Y62.940 E6.67015
G1 X136.661 Y64.880 E6.76287
G1 X136.751 Y65.990 E6.81539
G1 X136.751 Y84.000 E7.66468
G1 X136.661 Y85.110 E7.71720
G1 X136.341 Y87.050 E7.80992
G1 X136.061 Y88.140 E7.86299
G1 X135.611 Y89.170 E7.91600
G1 X134.671 Y90.910 E8.00926
G1 X134.051 Y91.860 E8.06275
G1 X133.291 Y92.690 E8.11582
G1 X131.831 Y94.030 E8.20928
G1 X130.951 Y94.720 E8.26201
G1 X129.961 Y95.250 E8.31496
G1 X128.161 Y96.040 E8.40766
G1 X127.251 Y96.360 E8.45315
G1 X126.301 Y96.550 E8.49884
G1 X124.821 Y96.740 E8.56920
G1 X123.951 Y96.800 E8.61033
G1 X25.951 Y96.800 E13.23171
G1 X25.041 Y96.760 E13.27467
G1 X24.421 Y96.690 E13.30409
G1 X23.811 Y96.570 E13.33341
G1 X21.891 Y96.090 E13.42674
G1 X20.821 Y95.720 E13.48013
G1 X19.821 Y95.180 E13.53372
G1 X18.171 Y94.100 E13.62671
G1 X17.281 Y93.410 E13.67982
G1 X16.521 Y92.580 E13.73289
G1 X15.311 Y91.020 E13.82599
G1 X14.701 Y90.080 E13.87883
G1 X14.251 Y89.050 E13.93184
G1 X13.611 Y87.180 E14.02504
G1 X13.331 Y86.100 E14.07766
G1 X13.241 Y84.980 E14.13064
G1 X13.241 Y65.010 E15.07237
G1 X13.331 Y63.890 E15.12535
G1 X13.611 Y62.810 E15.17797
G1 X14.251 Y60.940 E15.27117
G1 X14.701 Y59.910 E15.32418
G1 X15.311 Y58.970 E15.37702
G1 X16.521 Y57.410 E15.47012
G1 X17.281 Y56.580 E15.52319
G1 X18.171 Y55.890 E15.57630
G1 X19.821 Y54.810 E15.66929
G1 X20.768 Y54.299 E15.72006
G1 X20.981 Y54.640 F4500.000
G1 X21.991 Y54.290 E15.77046 F300.000
G1 X23.911 Y53.810 E15.86379
G1 X24.551 Y53.690 E15.89450
G1 X25.201 Y53.630 E15.92528
G1 X25.951 Y53.600 E15.96068
G1 X123.951 Y53.600 E20.58206
G1 X124.721 Y53.650 E20.61845
G1 X126.201 Y53.830 E20.68876
G1 X127.121 Y54.010 E20.73297
G1 X128.001 Y54.320 E20.77696
G1 X129.801 Y55.110 E20.86966
G1 X130.731 Y55.610 E20.91945
G1 X131.561 Y56.250 E20.96888
G1 X133.021 Y57.590 E21.06233
G1 X133.741 Y58.380 E21.11274
G1 X134.321 Y59.270 E21.16283
G1 X135.261 Y61.010 E21.25609
G1 X135.691 Y61.980 E21.30613
G1 X135.941 Y63.010 E21.35611
G1 X136.261 Y64.950 E21.44883
G1 X136.351 Y65.990 E21.49806
G1 X136.351 Y84.000 E22.34736
G1 X136.261 Y85.040 E22.39658
G1 X135.941 Y86.980 E22.48930
G1 X135.691 Y88.010 E22.53928
G1 X135.261 Y88.980 E22.58932
G1 X134.321 Y90.720 E22.68258
G1 X133.741 Y91.610 E22.73268
G1 X133.021 Y92.400 E22.78308
G1 X131.561 Y93.740 E22.87653
G1 X130.731 Y94.380 E22.92596
G1 X129.801 Y94.880 E22.97575
G1 X128.001 Y95.670 E23.06845
G1 X127.141 Y95.980 E23.11156
G1 X126.241 Y96.160 E23.15484
G1 X124.761 Y96.350 E23.22521
G1 X123.951 Y96.400 E23.26348
G1 X25.951 Y96.400 E27.88486
G1 X25.071 Y96.360 E27.92640
G1 X24.481 Y96.300 E27.95437
G1 X23.911 Y96.180 E27.98184
G1 X21.991 Y95.700 E28.07517
G1 X20.981 Y95.350 E28.12557
G1 X20.031 Y94.840 E28.17642
G1 X18.381 Y93.760 E28.26942
G1 X17.551 Y93.110 E28.31913
G1 X16.831 Y92.330 E28.36919
G1 X15.621 Y90.770 E28.46229
G1 X15.051 Y89.890 E28.51173
G1 X14.621 Y88.920 E28.56177
G1 X13.981 Y87.050 E28.65497
G1 X13.731 Y86.030 E28.70450
G1 X13.641 Y84.980 E28.75419
G1 X13.641 Y65.010 E29.69592
G1 X13.731 Y63.960 E29.74561
G1 X13.981 Y62.940 E29.79514
G1 X14.621 Y61.070 E29.88834
G1 X15.051 Y60.100 E29.93838
G1 X15.621 Y59.220 E29.98782
G1 X16.831 Y57.660 E30.08092
G1 X17.551 Y56.880 E30.13098
G1 X18.381 Y56.230 E30.18069
G1 X20.031 Y55.150 E30.27369
G1 X20.928 Y54.668 E30.32171
G1 F1800.000 E29.32171
G92 E0
G1 Z0.600 F4500.000
G1 X20.821 Y54.270 F4500.000
G1 E1.00000 F1800.000
G1 X21.891 Y53.900 E1.05339 F3000
G1 X23.811 Y53.420 E1.14672
G1 X24.491 Y53.290 E1.17937
G1 X25.181 Y53.230 E1.21203
G1 X25.951 Y53.200 E1.24836
G1 X123.951 Y53.200 E5.86975
G1 X124.771 Y53.250 E5.90849
G1 X126.251 Y53.430 E5.97880
G1 X127.231 Y53.620 E6.02587
G1 X128.161 Y53.950 E6.07241
G1 X129.961 Y54.740 E6.16511
G1 X130.951 Y55.270 E6.21806
G1 X131.831 Y55.960 E6.27080
G1 X133.291 Y57.300 E6.36425
G1 X134.051 Y58.130 E6.41732
G1 X134.671 Y59.080 E6.47081
G1 X135.611 Y60.820 E6.56407
G1 X136.061 Y61.850 E6.61708
G1 X136.341 Y62.940 E6.67015
G1 X136.661 Y64.880 E6.76287
G1 X136.751 Y65.990 E6.81539
G1 X136.751 Y84.000 E7.66468
G1 X136.661 Y85.110 E7.71720
G1 X136.341 Y87.050 E7.80992
G1 X136.061 Y88.140 E7.86299
G1 X135.611 Y89.170 E7.91600
G1 X134.671 Y90.910 E8.00926
G1 X134.051 Y91.860 E8.06275
G1 X133.291 Y92.690 E8.11582
G1 X131.831 Y94.030 E8.20928
G1 X130.951 Y94.720 E8.26201
G1 X129.961 Y95.250 E8.31496
G1 X128.161 Y96.040 E8.40766
G1 X127.251 Y96.360 E8.45315
G1 X126.301 Y96.550 E8.49884
G1 X124.821 Y96.740 E8.56920
G1 X123.951 Y96.800 E8.61033
G1 X25.951 Y96.800 E13.23171
G1 X25.041 Y96.760 E13.27467
G1 X24.421 Y96.690 E13.30409
G1 X23.811 Y96.570 E13.33341
G1 X21.891 Y96.090 E13.42674
G1 X20.821 Y95.720 E13.48013
G1 X19.821 Y95.180 E13.53372
G1 X18.171 Y94.100 E13.62671
G1 X17.281 Y93.410 E13.67982
G1 X16.521 Y92.580 E13.73289
G1 X15.311 Y91.020 E13.82599
G1 X14.701 Y90.080 E13.87883
G1 X14.251 Y89.050 E13.93184
G1 X13.611 Y87.180 E14.02504
G1 X13.331 Y86.100 E14.07766
G1 X13.241 Y84.980 E14.13064
G1 X13.241 Y65.010 E15.07237
G1 X13.331 Y63.890 E15.12535
G1 X13.611 Y62.810 E15.17797
G1 X14.251 Y60.940 E15.27117
G1 X14.701 Y59.910 E15.32418
G1 X15.311 Y58.970 E15.37702
G1 X16.521 Y57.410 E15.47012
G1 X17.281 Y56.580 E15.52319
G1 X18.171 Y55.890 E15.57630
G1 X19.821 Y54.810 E15.66929
G1 X20.768 Y54.299 E15.72006
G1 X20.981 Y54.640 F4500.000
G1 X21.991 Y54.290 E15.77046 F3000
G1 X23.911 Y53.810 E15.86379
G1 X24.551 Y53.690 E15.89450
G1 X25.201 Y53.630 E15.92528
G1 X25.951 Y53.600 E15.96068
G1 X123.951 Y53.600 E20.58206
G1 X124.721 Y53.650 E20.61845
G1 X126.201 Y53.830 E20.68876
G1 X127.121 Y54.010 E20.73297
G1 X128.001 Y54.320 E20.77696
G1 X129.801 Y55.110 E20.86966
G1 X130.731 Y55.610 E20.91945
G1 X131.561 Y56.250 E20.96888
G1 X133.021 Y57.590 E21.06233
G1 X133.741 Y58.380 E21.11274
G1 X134.321 Y59.270 E21.16283
G1 X135.261 Y61.010 E21.25609
G1 X135.691 Y61.980 E21.30613
G1 X135.941 Y63.010 E21.35611
G1 X136.261 Y64.950 E21.44883
G1 X136.351 Y65.990 E21.49806
G1 X136.351 Y84.000 E22.34736
G1 X136.261 Y85.040 E22.39658
G1 X135.941 Y86.980 E22.48930
G1 X135.691 Y88.010 E22.53928
G1 X135.261 Y88.980 E22.58932
G1 X134.321 Y90.720 E22.68258
G1 X133.741 Y91.610 E22.73268
G1 X133.021 Y92.400 E22.78308
G1 X131.561 Y93.740 E22.87653
G1 X130.731 Y94.380 E22.92596
G1 X129.801 Y94.880 E22.97575
G1 X128.001 Y95.670 E23.06845
G1 X127.141 Y95.980 E23.11156
G1 X126.241 Y96.160 E23.15484
G1 X124.761 Y96.350 E23.22521
G1 X123.951 Y96.400 E23.26348
G1 X25.951 Y96.400 E27.88486
G1 X25.071 Y96.360 E27.92640
G1 X24.481 Y96.300 E27.95437
G1 X23.911 Y96.180 E27.98184
G1 X21.991 Y95.700 E28.07517
G1 X20.981 Y95.350 E28.12557
G1 X20.031 Y94.840 E28.17642
G1 X18.381 Y93.760 E28.26942
G1 X17.551 Y93.110 E28.31913
G1 X16.831 Y92.330 E28.36919
G1 X15.621 Y90.770 E28.46229
G1 X15.051 Y89.890 E28.51173
G1 X14.621 Y88.920 E28.56177
G1 X13.981 Y87.050 E28.65497
G1 X13.731 Y86.030 E28.70450
G1 X13.641 Y84.980 E28.75419
G1 X13.641 Y65.010 E29.69592
G1 X13.731 Y63.960 E29.74561
G1 X13.981 Y62.940 E29.79514
G1 X14.621 Y61.070 E29.88834
G1 X15.051 Y60.100 E29.93838
G1 X15.621 Y59.220 E29.98782
G1 X16.831 Y57.660 E30.08092
G1 X17.551 Y56.880 E30.13098
G1 X18.381 Y56.230 E30.18069
G1 X20.031 Y55.150 E30.27369
G1 X20.928 Y54.668 E30.32171
G1 F1800.000 E29.32171
G92 E0
G1 X119.852 Y64.505 F4500.000
G1 E1.00000 F1800.000
M106 S255
G1 X121.149 Y62.651 E1.11174 F1500
G1 X122.726 Y61.916 E1.19765
G1 X122.726 Y61.654 E1.21061
G1 X125.454 Y61.892 E1.34584
G1 X127.308 Y63.190 E1.45758
G1 X128.264 Y65.241 E1.56932
G1 X128.067 Y67.495 E1.68105
G1 X126.769 Y69.349 E1.79279
G1 X124.718 Y70.305 E1.90453
G1 X122.464 Y70.108 E2.01627
G1 X120.611 Y68.810 E2.12801
G1 X119.654 Y66.759 E2.23974
G1 X119.846 Y64.565 E2.34852
M106 S89
G1 X120.241 Y64.647 F4500.000
M106 S255
G1 X121.415 Y62.969 E2.44966 F1500
G1 X123.126 Y62.171 E2.54287
G1 X123.126 Y62.090 E2.54686
G1 X125.313 Y62.282 E2.65524
G1 X126.990 Y63.456 E2.75639
G1 X127.856 Y65.313 E2.85754
G1 X127.677 Y67.353 E2.95870
G1 X126.503 Y69.031 E3.05984
G1 X124.646 Y69.897 E3.16100
G1 X122.606 Y69.718 E3.26215
G1 X120.928 Y68.544 E3.36330
G1 X120.062 Y66.687 E3.46445
G1 X120.235 Y64.706 E3.56264
M106 S89
G1 X120.151 Y64.519 F4500.000
G1 F1800.000 E2.56264
G92 E0
G1 X88.264 Y66.759 F4500.000
G1 E1.00000 F1800.000
M106 S255
G1 X87.308 Y68.810 E1.11174 F1500
G1 X85.454 Y70.108 E1.22347
G1 X83.200 Y70.305 E1.33521
G1 X81.149 Y69.349 E1.44695
G1 X79.852 Y67.495 E1.55869
G1 X79.654 Y65.241 E1.67042
G1 X80.611 Y63.190 E1.78216
G1 X82.464 Y61.892 E1.89390
G1 X84.718 Y61.695 E2.00564
G1 X86.769 Y62.651 E2.11737
G1 X88.067 Y64.505 E2.22911
G1 X88.259 Y66.699 E2.33789
M106 S89
G1 X87.856 Y66.687 F4500.000
M106 S255
G1 X86.990 Y68.544 E2.43904 F1500
G1 X85.312 Y69.718 E2.54019
G1 X83.272 Y69.897 E2.64134
G1 X81.416 Y69.031 E2.74249
G1 X80.241 Y67.353 E2.84364
G1 X80.062 Y65.313 E2.94480
G1 X80.928 Y63.456 E3.04595
G1 X82.606 Y62.282 E3.14710
G1 X84.646 Y62.103 E3.24825
G1 X86.503 Y62.969 E3.34940
G1 X87.678 Y64.647 E3.45056
G1 X87.851 Y66.627 E3.54874
M106 S89
G1 X88.139 Y66.970 F4500.000
G1 X88.672 Y66.831 F4500.000
M106 S255
G1 X88.456 Y64.363 E3.67107 F3000
G1 X87.035 Y62.334 E3.79339
G1 X84.959 Y61.366 E3.90650
G1 X84.959 Y61.000 E3.92459
G1 X87.284 Y61.000 E4.03941
G1 X89.988 Y62.964 E4.20443
G1 X89.988 Y62.533 E4.22570
G1 X94.378 Y64.488 E4.46302
G1 X100.718 Y65.836 E4.78311
G1 X107.200 Y65.836 E5.10321
G1 X113.540 Y64.488 E5.42330
G1 X119.462 Y61.852 E5.74340
G1 X120.634 Y61.000 E5.81494
G1 X122.326 Y61.000 E5.89851
G1 X122.326 Y61.661 E5.93117
G1 X120.883 Y62.334 E6.00980
G1 X119.462 Y64.363 E6.13212
G1 X119.247 Y66.831 E6.25444
G1 X120.293 Y69.076 E6.37676
G1 X122.322 Y70.497 E6.49908
G1 X123.901 Y70.635 E6.57736
G1 X123.901 Y70.940 E6.59243
G1 X123.175 Y71.000 E6.62839
G1 X84.959 Y71.000 E8.51559
G1 X84.959 Y70.552 E8.53770
G1 X85.596 Y70.497 E8.56926
G1 X87.625 Y69.076 E8.69158
G1 X88.646 Y66.885 E8.81094
M106 S89
G1 F1800.000 E7.81094
G92 E0
G1 X89.588 Y62.179 F4500.000
G1 E1.00000 F1800.000
M106 S255
G1 X89.588 Y61.917 E1.01292 F3000
G1 X94.502 Y64.105 E1.27858
G1 X100.760 Y65.436 E1.59452
G1 X107.158 Y65.436 E1.91047
G1 X113.416 Y64.105 E2.22641
G1 X119.261 Y61.503 E2.54235
G1 X120.504 Y60.600 E2.61823
G1 X123.191 Y60.600 E2.75095
G1 X125.283 Y60.773 E2.85457
G1 X126.908 Y61.486 E2.94222
G1 X128.214 Y62.688 E3.02987
G1 X129.059 Y64.249 E3.11752
G1 X129.351 Y66.000 E3.20517
G1 X129.059 Y67.751 E3.29282
G1 X128.214 Y69.312 E3.38047
G1 X126.908 Y70.514 E3.46812
G1 X125.283 Y71.227 E3.55577
G1 X123.191 Y71.400 E3.65939
G1 X84.559 Y71.400 E5.56716
G1 X84.559 Y71.287 E5.57276
G1 X83.514 Y71.373 E5.62455
G1 X81.793 Y70.938 E5.71220
G1 X80.307 Y69.967 E5.79985
G1 X79.217 Y68.566 E5.88750
G1 X78.641 Y66.887 E5.97515
G1 X78.641 Y65.113 E6.06280
G1 X79.217 Y63.434 E6.15044
G1 X80.307 Y62.033 E6.23809
G1 X81.793 Y61.062 E6.32574
G1 X83.514 Y60.627 E6.41339
G1 X84.559 Y60.713 E6.46519
G1 X84.559 Y60.600 E6.47078
G1 X87.414 Y60.600 E6.61178
G1 X89.539 Y62.144 E6.74148
M106 S89
G1 X89.188 Y61.394 F4500.000
M106 S255
G1 X89.188 Y61.301 E6.74605 F3000
G1 X94.626 Y63.723 E7.04005
G1 X100.802 Y65.036 E7.35184
G1 X107.116 Y65.036 E7.66363
G1 X113.292 Y63.723 E7.97542
G1 X119.060 Y61.155 E8.28721
G1 X120.374 Y60.200 E8.36744
G1 X123.759 Y60.200 E8.53461
G1 X123.759 Y60.246 E8.53686
G1 X125.382 Y60.380 E8.61729
G1 X127.130 Y61.147 E8.71153
G1 X128.534 Y62.439 E8.80577
G1 X129.442 Y64.118 E8.90001
G1 X129.756 Y66.000 E8.99426
G1 X129.442 Y67.882 E9.08850
G1 X128.534 Y69.561 E9.18274
G1 X127.130 Y70.853 E9.27698
G1 X125.382 Y71.620 E9.37122
G1 X123.759 Y71.754 E9.45165
G1 X123.759 Y71.800 E9.45390
G1 X84.159 Y71.800 E11.40946
G1 X84.159 Y71.721 E11.41335
G1 X83.480 Y71.777 E11.44698
G1 X81.630 Y71.309 E11.54123
G1 X80.033 Y70.265 E11.63547
G1 X78.861 Y68.759 E11.72971
G1 X78.241 Y66.954 E11.82395
G1 X78.241 Y65.046 E11.91819
G1 X78.861 Y63.241 E12.01243
G1 X80.033 Y61.735 E12.10667
G1 X81.630 Y60.691 E12.20092
G1 X83.480 Y60.223 E12.29516
G1 X84.159 Y60.279 E12.32879
G1 X84.159 Y60.200 E12.33268
G1 X87.544 Y60.200 E12.49985
G1 X89.139 Y61.359 E12.59720
M106 S89
G1 X89.278 Y61.413 F4500.000
G1 F1800.000 E11.59720
G92 E0
G1 X86.489 Y61.324 F4500.000
G1 E1.00000 F1800.000
M106 S255
G1 X86.541 Y61.272 E1.00367 F3000
G1 X87.046 Y61.410 E1.02951
G1 X86.616 Y61.839 E1.05952
G1 X87.054 Y62.044 E1.08340
G1 X87.418 Y61.680 E1.10880
G1 X87.790 Y61.950 E1.13152
G1 X87.383 Y62.358 E1.15996
G1 X87.647 Y62.736 E1.18275
G1 X88.162 Y62.221 E1.21870
G1 X88.535 Y62.491 E1.24142
G1 X87.912 Y63.114 E1.28489
G1 X88.177 Y63.492 E1.30767
G1 X88.907 Y62.762 E1.35865
G1 X89.422 Y62.889 E1.38487
G1 X88.441 Y63.869 E1.45335
G1 X88.706 Y64.247 E1.47614
G1 X89.794 Y63.159 E1.55213
G1 X90.526 Y63.070 E1.58853
G1 X88.769 Y64.827 E1.71124
G1 X88.821 Y65.418 E1.74053
G1 X90.971 Y63.268 E1.89067
G1 X91.415 Y63.466 E1.91471
G1 X88.872 Y66.009 E2.09230
G1 X88.924 Y66.600 E2.12159
G1 X91.860 Y63.664 E2.32662
G1 X92.304 Y63.862 E2.35065
G1 X88.653 Y67.514 E2.60566
M106 S89
G1 X88.091 Y68.718 F4500.000
M106 S255
G1 X92.749 Y64.060 E2.93094 F3000
G1 X93.194 Y64.258 E2.95497
G1 X86.723 Y70.728 E3.40686
G1 X87.366 Y70.728 E3.43859
G1 X93.638 Y64.456 E3.87666
G1 X94.083 Y64.654 E3.90069
G1 X88.008 Y70.728 E4.32493
G1 X88.651 Y70.728 E4.35666
G1 X94.573 Y64.807 E4.77021
G1 X95.102 Y64.920 E4.79696
G1 X89.294 Y70.728 E5.20265
G1 X89.936 Y70.728 E5.23438
G1 X95.632 Y65.032 E5.63219
G1 X96.162 Y65.145 E5.65895
G1 X90.579 Y70.728 E6.04889
G1 X91.221 Y70.728 E6.08063
G1 X96.692 Y65.258 E6.46271
G1 X97.222 Y65.370 E6.48946
G1 X91.864 Y70.728 E6.86368
G1 X92.507 Y70.728 E6.89541
G1 X97.752 Y65.483 E7.26176
G1 X98.282 Y65.595 E7.28851
G1 X93.149 Y70.728 E7.64699
G1 X93.792 Y70.728 E7.67872
G1 X98.812 Y65.708 E8.02934
G1 X99.342 Y65.821 E8.05609
G1 X94.434 Y70.728 E8.39884
G1 X95.077 Y70.728 E8.43057
G1 X99.872 Y65.933 E8.76545
G1 X100.402 Y66.046 E8.79220
G1 X95.720 Y70.728 E9.11922
G1 X96.362 Y70.728 E9.15095
G1 X100.983 Y66.107 E9.47369
G1 X101.626 Y66.107 E9.50542
G1 X97.005 Y70.728 E9.82817
G1 X97.647 Y70.728 E9.85990
G1 X102.269 Y66.107 E10.18264
G1 X102.911 Y66.107 E10.21438
G1 X98.290 Y70.728 E10.53712
G1 X98.932 Y70.728 E10.56885
G1 X103.554 Y66.107 E10.89159
G1 X104.196 Y66.107 E10.92333
G1 X99.575 Y70.728 E11.24607
G1 X100.218 Y70.728 E11.27780
G1 X104.839 Y66.107 E11.60055
G1 X105.482 Y66.107 E11.63228
G1 X100.860 Y70.728 E11.95502
G1 X101.503 Y70.728 E11.98675
G1 X106.124 Y66.107 E12.30950
G1 X106.767 Y66.107 E12.34123
G1 X102.145 Y70.728 E12.66397
G1 X102.788 Y70.728 E12.69571
G1 X107.458 Y66.058 E13.02186
G1 X108.274 Y65.885 E13.06306
G1 X103.431 Y70.728 E13.40132
G1 X104.073 Y70.728 E13.43305
G1 X109.090 Y65.711 E13.78343
G1 X109.906 Y65.538 E13.82463
G1 X104.716 Y70.728 E14.18712
