; generated by Slic3r 1.0.0RC2 on 2014-09-05 at 22:07:01

; layer_height = 0.3
; perimeters = 3
; top_solid_layers = 3
; bottom_solid_layers = 3
; fill_density = 0.15
; perimeter_speed = 50
; infill_speed = 50
; travel_speed = 75
; nozzle_diameter = 0.4
; filament_diameter = 1.8
; extrusion_multiplier = 1
; perimeters extrusion width = 0.40mm
; infill extrusion width = 0.42mm
; solid infill extrusion width = 0.42mm
; top infill extrusion width = 0.42mm
; support material extrusion width = 0.40mm
; first layer extrusion width = 0.60mm

G21 ; set units to millimeters
M107
M104 S195 ; set temperature
G28 X0 Y0
G29
M109 S195 ; wait for temperature to be reached
G90 ; use absolute coordinates
G92 E0
M82 ; use absolute distances for extrusion
M106 S89
G1 F1800.000 E-1.00000
G92 E0
G1 Z0.300 F4500.000
G1 X35.640 Y47.130 F4500.000
G1 E1.00000 F1800.000
G1 X35.950 Y46.910 E1.01793 F300.000
G1 X36.630 Y46.490 E1.05562
G1 X36.960 Y46.310 E1.07334
G1 X37.690 Y45.970 E1.11132
G1 X38.040 Y45.830 E1.12909
G1 X38.920 Y45.540 E1.17279
G1 X39.280 Y45.450 E1.19029
G1 X40.340 Y45.280 E1.24091
G1 X40.910 Y45.230 E1.26789
G1 X41.500 Y45.200 E1.29575
G1 X69.500 Y45.200 E2.61615
G1 X70.180 Y45.230 E2.64825
G1 X70.850 Y45.340 E2.68027
G1 X112.850 Y53.840 E4.70101
G1 X114.120 Y54.230 E4.76366
G1 X115.290 Y54.860 E4.82633
G1 X116.320 Y55.700 E4.88900
G1 X117.160 Y56.730 E4.95168
G1 X117.780 Y57.900 E5.01412
G1 X118.170 Y59.180 E5.07722
G1 X118.300 Y60.500 E5.13977
G1 X118.300 Y89.500 E6.50732
G1 X118.170 Y90.820 E6.56987
G1 X117.780 Y92.100 E6.63297
G1 X117.160 Y93.270 E6.69542
G1 X116.320 Y94.300 E6.75809
G1 X115.290 Y95.140 E6.82077
G1 X114.120 Y95.770 E6.88343
G1 X112.850 Y96.160 E6.94608
G1 X70.850 Y104.660 E8.96683
G1 X70.180 Y104.770 E8.99885
G1 X69.500 Y104.800 E9.03095
G1 X41.500 Y104.800 E10.35134
G1 X40.790 Y104.760 E10.38488
G1 X40.220 Y104.700 E10.41191
G1 X39.280 Y104.540 E10.45687
G1 X38.920 Y104.450 E10.47437
G1 X38.040 Y104.160 E10.51806
G1 X37.690 Y104.020 E10.53584
G1 X36.960 Y103.680 E10.57381
G1 X36.630 Y103.500 E10.59154
G1 X35.950 Y103.080 E10.62923
G1 X35.640 Y102.860 E10.64716
G1 X34.860 Y102.210 E10.69504
G1 X34.590 Y101.950 E10.71271
G1 X34.070 Y101.390 E10.74875
G1 X33.830 Y101.100 E10.76650
G1 X33.300 Y100.360 E10.80942
G1 X33.100 Y100.040 E10.82722
G1 X32.720 Y99.340 E10.86478
G1 X32.560 Y99.000 E10.88250
G1 X32.260 Y98.250 E10.92059
G1 X32.140 Y97.890 E10.93849
G1 X31.910 Y97.000 E10.98184
G1 X31.840 Y96.630 E10.99959
G1 X31.730 Y95.740 E11.04188
G1 X31.700 Y95.000 E11.07681
G1 X31.700 Y54.990 E12.96356
G1 X31.730 Y54.250 E12.99848
G1 X31.830 Y53.400 E13.03884
G1 X31.890 Y53.070 E13.05466
G1 X31.990 Y52.600 E13.07732
G1 X32.140 Y52.100 E13.10194
G1 X32.260 Y51.740 E13.11983
G1 X32.560 Y50.990 E13.15793
G1 X32.720 Y50.650 E13.17565
G1 X33.100 Y49.950 E13.21321
G1 X33.300 Y49.630 E13.23100
G1 X33.830 Y48.890 E13.27392
G1 X34.070 Y48.600 E13.29168
G1 X34.590 Y48.040 E13.32771
G1 X34.860 Y47.780 E13.34539
G1 X35.594 Y47.168 E13.39044
G1 X35.880 Y47.460 F4500.000
G1 X36.190 Y47.240 E13.40836 F300.000
G1 X36.830 Y46.840 E13.44396
G1 X37.160 Y46.660 E13.46168
G1 X37.840 Y46.340 E13.49712
G1 X38.190 Y46.200 E13.51490
G1 X39.020 Y45.930 E13.55606
G1 X39.380 Y45.840 E13.57356
G1 X40.370 Y45.670 E13.62092
G1 X40.940 Y45.620 E13.64791
G1 X41.500 Y45.600 E13.67433
G1 X69.500 Y45.600 E14.99473
G1 X70.140 Y45.630 E15.02494
G1 X70.770 Y45.730 E15.05502
G1 X112.770 Y54.230 E17.07577
G1 X113.970 Y54.590 E17.13485
G1 X115.070 Y55.190 E17.19394
G1 X116.030 Y55.980 E17.25257
G1 X116.830 Y56.950 E17.31186
G1 X117.420 Y58.060 E17.37114
G1 X117.780 Y59.250 E17.42977
G1 X117.900 Y60.500 E17.48899
G1 X117.900 Y89.500 E18.85654
G1 X117.780 Y90.750 E18.91576
G1 X117.420 Y91.940 E18.97438
G1 X116.830 Y93.050 E19.03366
G1 X116.030 Y94.020 E19.09296
G1 X115.070 Y94.810 E19.15158
G1 X113.970 Y95.410 E19.21067
G1 X112.770 Y95.770 E19.26975
G1 X70.770 Y104.270 E21.29050
G1 X70.140 Y104.370 E21.32058
G1 X69.500 Y104.400 E21.35080
G1 X41.500 Y104.400 E22.67119
G1 X40.830 Y104.360 E22.70284
G1 X40.260 Y104.300 E22.72987
G1 X39.380 Y104.150 E22.77197
G1 X39.020 Y104.060 E22.78947
G1 X38.190 Y103.790 E22.83063
G1 X37.840 Y103.650 E22.84840
G1 X37.160 Y103.330 E22.88384
G1 X36.830 Y103.150 E22.90157
G1 X36.190 Y102.750 E22.93716
G1 X35.880 Y102.530 E22.95509
G1 X35.140 Y101.920 E23.00031
G1 X34.870 Y101.660 E23.01799
G1 X34.380 Y101.130 E23.05202
G1 X34.140 Y100.840 E23.06977
G1 X33.640 Y100.150 E23.10996
G1 X33.440 Y99.830 E23.12775
G1 X33.080 Y99.170 E23.16321
G1 X32.920 Y98.830 E23.18093
G1 X32.640 Y98.120 E23.21692
G1 X32.520 Y97.760 E23.23481
G1 X32.300 Y96.930 E23.27530
G1 X32.230 Y96.560 E23.29306
G1 X32.130 Y95.720 E23.33295
G1 X32.100 Y95.000 E23.36694
G1 X32.100 Y54.990 E25.25369
G1 X32.130 Y54.270 E25.28767
G1 X32.220 Y53.480 E25.32516
G1 X32.280 Y53.150 E25.34098
G1 X32.380 Y52.700 E25.36272
G1 X32.520 Y52.230 E25.38585
G1 X32.640 Y51.870 E25.40374
G1 X32.920 Y51.160 E25.43973
G1 X33.080 Y50.820 E25.45745
G1 X33.440 Y50.160 E25.49290
G1 X33.640 Y49.840 E25.51070
G1 X34.140 Y49.150 E25.55088
G1 X34.380 Y48.860 E25.56863
G1 X34.870 Y48.330 E25.60267
G1 X35.140 Y48.070 E25.62035
G1 X35.834 Y47.498 E25.66274
G1 F1800.000 E24.66274
G92 E0
G1 Z0.600 F4500.000
G1 X35.640 Y47.130 F4500.000
G1 E1.00000 F1800.000
G1 X35.950 Y46.910 E1.01793 F3000
G1 X36.630 Y46.490 E1.05562
G1 X36.960 Y46.310 E1.07334
G1 X37.690 Y45.970 E1.11132
G1 X38.040 Y45.830 E1.12909
G1 X38.920 Y45.540 E1.17279
G1 X39.280 Y45.450 E1.19029
G1 X40.340 Y45.280 E1.24091
G1 X40.910 Y45.230 E1.26789
G1 X41.500 Y45.200 E1.29575
G1 X69.500 Y45.200 E2.61615
G1 X70.180 Y45.230 E2.64825
G1 X70.850 Y45.340 E2.68027
G1 X112.850 Y53.840 E4.70101
G1 X114.120 Y54.230 E4.76366
G1 X115.290 Y54.860 E4.82633
G1 X116.320 Y55.700 E4.88900
G1 X117.160 Y56.730 E4.95168
G1 X117.780 Y57.900 E5.01412
G1 X118.170 Y59.180 E5.07722
G1 X118.300 Y60.500 E5.13977
G1 X118.300 Y89.500 E6.50732
G1 X118.170 Y90.820 E6.56987
G1 X117.780 Y92.100 E6.63297
G1 X117.160 Y93.270 E6.69542
G1 X116.320 Y94.300 E6.75809
G1 X115.290 Y95.140 E6.82077
G1 X114.120 Y95.770 E6.88343
G1 X112.850 Y96.160 E6.94608
G1 X70.850 Y104.660 E8.96683
G1 X70.180 Y104.770 E8.99885
G1 X69.500 Y104.800 E9.03095
G1 X41.500 Y104.800 E10.35134
G1 X40.790 Y104.760 E10.38488
G1 X40.220 Y104.700 E10.41191
G1 X39.280 Y104.540 E10.45687
G1 X38.920 Y104.450 E10.47437
G1 X38.040 Y104.160 E10.51806
G1 X37.690 Y104.020 E10.53584
G1 X36.960 Y103.680 E10.57381
G1 X36.630 Y103.500 E10.59154
G1 X35.950 Y103.080 E10.62923
G1 X35.640 Y102.860 E10.64716
G1 X34.860 Y102.210 E10.69504
G1 X34.590 Y101.950 E10.71271
G1 X34.070 Y101.390 E10.74875
G1 X33.830 Y101.100 E10.76650
G1 X33.300 Y100.360 E10.80942
G1 X33.100 Y100.040 E10.82722
G1 X32.720 Y99.340 E10.86478
G1 X32.560 Y99.000 E10.88250
G1 X32.260 Y98.250 E10.92059
G1 X32.140 Y97.890 E10.93849
G1 X31.910 Y97.000 E10.98184
G1 X31.840 Y96.630 E10.99959
G1 X31.730 Y95.740 E11.04188
G1 X31.700 Y95.000 E11.07681
G1 X31.700 Y54.990 E12.96356
G1 X31.730 Y54.250 E12.99848
G1 X31.830 Y53.400 E13.03884
G1 X31.890 Y53.070 E13.05466
G1 X31.990 Y52.600 E13.07732
G1 X32.140 Y52.100 E13.10194
G1 X32.260 Y51.740 E13.11983
G1 X32.560 Y50.990 E13.15793
G1 X32.720 Y50.650 E13.17565
G1 X33.100 Y49.950 E13.21321
G1 X33.300 Y49.630 E13.23100
G1 X33.830 Y48.890 E13.27392
G1 X34.070 Y48.600 E13.29168
G1 X34.590 Y48.040 E13.32771
G1 X34.860 Y47.780 E13.34539
G1 X35.594 Y47.168 E13.39044
G1 X35.880 Y47.460 F4500.000
G1 X36.190 Y47.240 E13.40836 F3000
G1 X36.830 Y46.840 E13.44396
G1 X37.160 Y46.660 E13.46168
G1 X37.840 Y46.340 E13.49712
G1 X38.190 Y46.200 E13.51490
G1 X39.020 Y45.930 E13.55606
G1 X39.380 Y45.840 E13.57356
G1 X40.370 Y45.670 E13.62092
G1 X40.940 Y45.620 E13.64791
G1 X41.500 Y45.600 E13.67433
G1 X69.500 Y45.600 E14.99473
G1 X70.140 Y45.630 E15.02494
G1 X70.770 Y45.730 E15.05502
G1 X112.770 Y54.230 E17.07577
G1 X113.970 Y54.590 E17.13485
G1 X115.070 Y55.190 E17.19394
G1 X116.030 Y55.980 E17.25257
G1 X116.830 Y56.950 E17.31186
G1 X117.420 Y58.060 E17.37114
G1 X117.780 Y59.250 E17.42977
G1 X117.900 Y60.500 E17.48899
G1 X117.900 Y89.500 E18.85654
G1 X117.780 Y90.750 E18.91576
G1 X117.420 Y91.940 E18.97438
G1 X116.830 Y93.050 E19.03366
G1 X116.030 Y94.020 E19.09296
G1 X115.070 Y94.810 E19.15158
G1 X113.970 Y95.410 E19.21067
G1 X112.770 Y95.770 E19.26975
G1 X70.770 Y104.270 E21.29050
G1 X70.140 Y104.370 E21.32058
G1 X69.500 Y104.400 E21.35080
G1 X41.500 Y104.400 E22.67119
G1 X40.830 Y104.360 E22.70284
G1 X40.260 Y104.300 E22.72987
G1 X39.380 Y104.150 E22.77197
G1 X39.020 Y104.060 E22.78947
G1 X38.190 Y103.790 E22.83063
G1 X37.840 Y103.650 E22.84840
G1 X37.160 Y103.330 E22.88384
G1 X36.830 Y103.150 E22.90157
G1 X36.190 Y102.750 E22.93716
G1 X35.880 Y102.530 E22.95509
G1 X35.140 Y101.920 E23.00031
G1 X34.870 Y101.660 E23.01799
G1 X34.380 Y101.130 E23.05202
G1 X34.140 Y100.840 E23.06977
G1 X33.640 Y100.150 E23.10996
G1 X33.440 Y99.830 E23.12775
G1 X33.080 Y99.170 E23.16321
G1 X32.920 Y98.830 E23.18093
G1 X32.640 Y98.120 E23.21692
G1 X32.520 Y97.760 E23.23481
G1 X32.300 Y96.930 E23.27530
G1 X32.230 Y96.560 E23.29306
G1 X32.130 Y95.720 E23.33295
G1 X32.100 Y95.000 E23.36694
G1 X32.100 Y54.990 E25.25369
G1 X32.130 Y54.270 E25.28767
G1 X32.220 Y53.480 E25.32516
G1 X32.280 Y53.150 E25.34098
G1 X32.380 Y52.700 E25.36272
G1 X32.520 Y52.230 E25.38585
G1 X32.640 Y51.870 E25.40374
G1 X32.920 Y51.160 E25.43973
G1 X33.080 Y50.820 E25.45745
G1 X33.440 Y50.160 E25.49290
G1 X33.640 Y49.840 E25.51070
G1 X34.140 Y49.150 E25.55088
G1 X34.380 Y48.860 E25.56863
G1 X34.870 Y48.330 E25.60267
G1 X35.140 Y48.070 E25.62035
G1 X35.834 Y47.498 E25.66274
G1 F1800.000 E24.66274
G92 E0
G1 X42.800 Y55.550 F4500.000
G1 E1.00000 F1800.000
M106 S255
G1 X66.200 Y55.550 E2.15556 F3000
G1 X66.200 Y59.800 E2.36543
G1 X67.200 Y59.800 E2.41481
G1 X67.200 Y61.620 E2.50471
G1 X67.793 Y61.027 E2.54614
G1 X68.128 Y60.856 E2.56471
G1 X68.500 Y60.798 E2.58329
G1 X68.872 Y60.856 E2.60187
G1 X69.207 Y61.027 E2.62045
G1 X69.473 Y61.293 E2.63903
G1 X69.644 Y61.628 E2.65761
G1 X69.702 Y62.000 E2.67619
G1 X69.644 Y62.372 E2.69477
G1 X69.473 Y62.707 E2.71335
G1 X69.207 Y62.973 E2.73192
G1 X68.872 Y63.144 E2.75050
G1 X68.500 Y63.202 E2.76908
G1 X68.128 Y63.144 E2.78766
G1 X67.793 Y62.973 E2.80624
G1 X67.200 Y62.380 E2.84767
G1 X67.200 Y64.200 E2.93756
G1 X66.200 Y64.200 E2.98694
G1 X66.200 Y68.450 E3.19682
G1 X42.800 Y68.450 E4.35237
G1 X42.800 Y64.200 E4.56225
G1 X41.800 Y64.200 E4.61163
G1 X41.800 Y62.380 E4.70153
G1 X41.207 Y62.973 E4.74296
G1 X40.872 Y63.144 E4.76154
G1 X40.500 Y63.202 E4.78012
G1 X40.128 Y63.144 E4.79870
G1 X39.793 Y62.973 E4.81728
G1 X39.527 Y62.707 E4.83585
G1 X39.356 Y62.372 E4.85443
G1 X39.298 Y62.000 E4.87301
G1 X39.356 Y61.628 E4.89159
G1 X39.527 Y61.293 E4.91017
G1 X39.793 Y61.027 E4.92875
G1 X40.128 Y60.856 E4.94733
G1 X40.500 Y60.798 E4.96591
G1 X40.872 Y60.856 E4.98449
G1 X41.207 Y61.027 E5.00307
G1 X41.800 Y61.620 E5.04450
G1 X41.800 Y59.800 E5.13440
G1 X42.800 Y59.800 E5.18378
G1 X42.800 Y55.610 E5.39069
M106 S89
G1 X42.800 Y55.150 F4500.000
G1 X42.000 Y54.750 F4500.000
M106 S255
G1 X42.000 Y59.000 E5.60057 F3000
G1 X41.000 Y59.000 E5.64995
G1 X41.000 Y60.067 E5.70263
G1 X40.500 Y59.988 E5.72763
G1 X39.878 Y60.086 E5.75872
G1 X39.500 Y60.279 E5.77968
G1 X39.500 Y55.031 E6.03880
G1 X39.518 Y54.750 E6.05274
G1 X39.565 Y54.503 E6.06514
G1 X39.642 Y54.264 E6.07753
G1 X39.749 Y54.037 E6.08992
G1 X39.884 Y53.826 E6.10231
G1 X40.043 Y53.632 E6.11470
G1 X40.226 Y53.460 E6.12709
G1 X40.429 Y53.313 E6.13948
G1 X40.649 Y53.192 E6.15187
G1 X40.883 Y53.100 E6.16426
G1 X41.126 Y53.037 E6.17665
G1 X41.375 Y53.006 E6.18904
G1 X42.500 Y53.000 E6.24462
G1 X69.102 Y53.000 E7.55832
G1 X78.102 Y61.500 E8.16965
G1 X110.500 Y61.500 E9.76953
G1 X110.500 Y62.500 E9.81892
G1 X78.102 Y62.500 E11.41880
G1 X69.102 Y71.000 E12.03013
G1 X41.375 Y70.994 E13.39940
G1 X41.126 Y70.963 E13.41179
G1 X40.883 Y70.900 E13.42419
G1 X40.649 Y70.808 E13.43657
G1 X40.429 Y70.687 E13.44897
G1 X40.226 Y70.540 E13.46136
G1 X40.043 Y70.368 E13.47375
G1 X39.884 Y70.174 E13.48614
G1 X39.749 Y69.963 E13.49853
G1 X39.642 Y69.736 E13.51092
G1 X39.565 Y69.497 E13.52331
G1 X39.518 Y69.250 E13.53571
G1 X39.500 Y68.969 E13.54965
G1 X39.500 Y63.721 E13.80877
G1 X39.878 Y63.914 E13.82973
G1 X40.500 Y64.012 E13.86082
G1 X41.000 Y63.933 E13.88582
G1 X41.000 Y65.000 E13.93850
G1 X42.000 Y65.000 E13.98788
G1 X42.000 Y69.250 E14.19776
G1 X67.000 Y69.250 E15.43233
G1 X67.000 Y65.000 E15.64220
G1 X68.000 Y65.000 E15.69159
G1 X68.000 Y63.933 E15.74426
G1 X68.500 Y64.012 E15.76926
G1 X69.122 Y63.914 E15.80036
G1 X69.683 Y63.628 E15.83145
G1 X70.128 Y63.183 E15.86254
G1 X70.414 Y62.622 E15.89363
G1 X70.512 Y62.000 E15.92473
G1 X70.414 Y61.378 E15.95582
G1 X70.128 Y60.817 E15.98692
G1 X69.683 Y60.372 E16.01801
G1 X69.122 Y60.086 E16.04910
G1 X68.500 Y59.988 E16.08020
G1 X68.000 Y60.067 E16.10520
G1 X68.000 Y59.000 E16.15787
G1 X67.000 Y59.000 E16.20726
G1 X67.000 Y54.750 E16.41713
G1 X42.060 Y54.750 E17.64874
M106 S89
G1 X42.400 Y55.150 F4500.000
M106 S255
G1 X42.400 Y59.400 E17.85861 F3000
G1 X41.400 Y59.400 E17.90800
G1 X41.400 Y60.677 E17.97104
G1 X40.997 Y60.471 E17.99339
G1 X40.500 Y60.393 E18.01823
G1 X40.003 Y60.471 E18.04306
G1 X39.555 Y60.700 E18.06790
G1 X39.100 Y61.155 E18.09969
G1 X39.100 Y55.019 E18.40269
G1 X39.120 Y54.699 E18.41850
G1 X39.177 Y54.403 E18.43338
G1 X39.270 Y54.117 E18.44826
G1 X39.398 Y53.844 E18.46313
G1 X39.559 Y53.590 E18.47801
G1 X39.751 Y53.358 E18.49288
G1 X39.971 Y53.152 E18.50776
G1 X40.215 Y52.975 E18.52263
G1 X40.479 Y52.829 E18.53751
G1 X40.759 Y52.719 E18.55239
G1 X41.051 Y52.644 E18.56727
G1 X41.349 Y52.606 E18.58214
G1 X42.100 Y52.600 E18.61921
G1 X69.261 Y52.600 E19.96052
G1 X78.261 Y61.100 E20.57185
G1 X110.900 Y61.100 E22.18363
G1 X110.900 Y62.900 E22.27251
G1 X78.261 Y62.900 E23.88429
G1 X69.261 Y71.400 E24.49562
G1 X41.349 Y71.394 E25.87400
G1 X41.051 Y71.356 E25.88887
G1 X40.759 Y71.281 E25.90375
G1 X40.479 Y71.171 E25.91862
G1 X40.215 Y71.025 E25.93351
G1 X39.971 Y70.848 E25.94838
G1 X39.751 Y70.642 E25.96326
G1 X39.559 Y70.410 E25.97813
G1 X39.398 Y70.156 E25.99301
G1 X39.270 Y69.883 E26.00788
G1 X39.177 Y69.597 E26.02276
G1 X39.120 Y69.301 E26.03764
G1 X39.100 Y68.981 E26.05345
G1 X39.100 Y62.845 E26.35645
G1 X39.555 Y63.300 E26.38824
G1 X40.003 Y63.529 E26.41308
G1 X40.500 Y63.607 E26.43791
G1 X40.997 Y63.529 E26.46275
G1 X41.400 Y63.323 E26.48510
G1 X41.400 Y64.600 E26.54814
G1 X42.400 Y64.600 E26.59753
G1 X42.400 Y68.850 E26.80740
G1 X66.600 Y68.850 E28.00246
G1 X66.600 Y64.600 E28.21234
G1 X67.600 Y64.600 E28.26172
G1 X67.600 Y63.323 E28.32477
G1 X68.003 Y63.529 E28.34712
G1 X68.500 Y63.607 E28.37195
G1 X68.997 Y63.529 E28.39679
G1 X69.445 Y63.300 E28.42163
G1 X69.800 Y62.945 E28.44646
G1 X70.029 Y62.497 E28.47130
G1 X70.107 Y62.000 E28.49614
G1 X70.029 Y61.503 E28.52097
G1 X69.800 Y61.055 E28.54581
G1 X69.445 Y60.700 E28.57064
G1 X68.997 Y60.471 E28.59548
G1 X68.500 Y60.393 E28.62032
G1 X68.003 Y60.471 E28.64515
G1 X67.600 Y60.677 E28.66750
G1 X67.600 Y59.400 E28.73055
G1 X66.600 Y59.400 E28.77993
G1 X66.600 Y55.150 E28.98981
G1 X42.460 Y55.150 E30.18191
M106 S89
G1 F1800.000 E29.18191
G92 E0
G1 X41.700 Y52.206 F4500.000
G1 E1.00000 F1800.000
M106 S255
G1 X69.420 Y52.200 E2.36891 F3000
G1 X78.420 Y60.700 E2.98024
G1 X111.300 Y60.700 E4.60392
G1 X111.300 Y63.300 E4.73232
G1 X78.420 Y63.300 E6.35600
G1 X69.420 Y71.800 E6.96733
G1 X41.700 Y71.800 E8.33624
G1 X41.324 Y71.794 E8.35480
G1 X40.975 Y71.750 E8.37216
G1 X40.635 Y71.663 E8.38952
G1 X40.308 Y71.533 E8.40688
G1 X40.000 Y71.364 E8.42425
G1 X39.715 Y71.157 E8.44161
G1 X39.459 Y70.916 E8.45897
G1 X39.235 Y70.646 E8.47633
G1 X39.047 Y70.349 E8.49369
G1 X38.897 Y70.031 E8.51105
G1 X38.788 Y69.696 E8.52842
G1 X38.723 Y69.351 E8.54578
G1 X38.700 Y68.994 E8.56345
G1 X38.700 Y55.006 E9.25419
G1 X38.723 Y54.649 E9.27186
G1 X38.788 Y54.304 E9.28922
G1 X38.897 Y53.969 E9.30659
G1 X39.047 Y53.651 E9.32395
G1 X39.235 Y53.354 E9.34131
G1 X39.459 Y53.084 E9.35867
G1 X39.715 Y52.843 E9.37603
